;O0.MPF
;MASTERCAM - 2024
;MCAM FILE - C:\USERS\USER\DESKTOP\▒¢┤y└╔\20251120.MCAM
;POST      - MPPOSTABILITY_TONGTAI_AMH-350.PST
;PROGRAM   - 20260525450715000610.MPF
;DATE      - MAY-25-2026
;TIME      - 1:28 PM
;POST DEV  - POSTABILITY INC.

G40 G17 G64 G90 G54
G0 SUPA D0 Z0.
G0 SUPA X0. Y0.
M13 M23
G0 A0. C0.
TRAFOOF
G0 SUPA D0 Z0.

D1
TRAFOOF
G17 G54 G0 G90 X21. Y-24.
; ==========================================
LASER_PARA(480,,3.65,1)
/M713 ; LASER safety lock on
G4 F1.
/M721 ; Powder supply
/G4 F20. ; WAIT FOR THE POWDER REFILL ALL THE SPACE IN TUBE
; ==========================================
D1
CYCLE832(.025,_FINISH,1)
TRAFOOF
G54
TRAORI(2)
G01 X21.282 Y-24.347 Z135.732 A0. C0. F2000.
Z110.732
/M01
/M717 ;LASER ON
G1 X21.272 Y-24.346 Z110.732 A0. C0. F1500.
X20.913 Y-24.327 Z110.732 A0. C0.
X20.536 Y-24.247 Z110.732 A0. C0.
X19.753 Y-23.897 Z110.732 A0. C0.
X18.873 Y-23.449 Z110.732 A0. C0.
X17.955 Y-22.933 Z110.732 A0. C0.
X17.045 Y-22.379 Z110.732 A0. C0.
X14.406 Y-20.635 Z110.732 A0. C0.
X10.647 Y-18.012 Z110.732 A0. C0.
X7.586 Y-15.788 Z110.732 A0. C0.
X4.268 Y-13.282 Z110.732 A0. C0.
X2.279 Y-11.72 Z110.732 A0. C0.
X-.169 Y-9.695 Z110.732 A0. C0.
X-2.215 Y-7.932 Z110.732 A0. C0.
X-3.638 Y-6.667 Z110.732 A0. C0.
X-5.146 Y-5.277 Z110.732 A0. C0.
X-6.359 Y-4.12 Z110.732 A0. C0.
X-8.067 Y-2.414 Z110.732 A0. C0.
X-9.56 Y-.85 Z110.732 A0. C0.
X-10.972 Y.702 Z110.732 A0. C0.
X-12.195 Y2.109 Z110.732 A0. C0.
X-13.645 Y3.868 Z110.732 A0. C0.
X-14.794 Y5.328 Z110.732 A0. C0.
X-15.996 Y6.925 Z110.732 A0. C0.
X-17.241 Y8.652 Z110.732 A0. C0.
X-18.626 Y10.647 Z110.732 A0. C0.
X-20.396 Y13.289 Z110.732 A0. C0.
X-22.96 Y17.27 Z110.732 A0. C0.
X-23.99 Y18.952 Z110.732 A0. C0.
X-24.771 Y20.307 Z110.732 A0. C0.
X-24.866 Y20.625 Z110.732 A0. C0.
X-24.911 Y20.876 Z110.732 A0. C0.
X-24.919 Y21.137 Z110.732 A0. C0.
X-24.894 Y21.462 Z110.732 A0. C0.
X-24.834 Y21.727 Z110.732 A0. C0.
X-24.712 Y22.074 Z110.732 A0. C0.
X-24.415 Y22.557 Z110.732 A0. C0.
X-24.051 Y22.955 Z110.732 A0. C0.
X-23.653 Y23.223 Z110.732 A0. C0.
X-23.345 Y23.347 Z110.732 A0. C0.
X-22.901 Y23.459 Z110.732 A0. C0.
X-22.559 Y23.49 Z110.732 A0. C0.
X-22.06 Y23.443 Z110.732 A0. C0.
X-21.511 Y23.267 Z110.732 A0. C0.
X-20.704 Y22.453 Z110.732 A0. C0.
X-19.868 Y21.514 Z110.732 A0. C0.
X-19.177 Y20.68 Z110.732 A0. C0.
X-17.986 Y19.168 Z110.732 A0. C0.
X-13.887 Y13.727 Z110.732 A0. C0.
X-12.607 Y12.107 Z110.732 A0. C0.
X-11.511 Y10.646 Z110.732 A0. C0.
X-11.328 Y10.471 Z110.732 A0. C0.
X-9.686 Y8.44 Z110.732 A0. C0.
X-7.138 Y5.432 Z110.732 A0. C0.
X-5.699 Y3.824 Z110.732 A0. C0.
X-4.22 Y2.25 Z110.732 A0. C0.
X-3.192 Y1.196 Z110.732 A0. C0.
X-.988 Y-.953 Z110.732 A0. C0.
X.436 Y-2.283 Z110.732 A0. C0.
X2.222 Y-3.9 Z110.732 A0. C0.
X3.681 Y-5.184 Z110.732 A0. C0.
X5.535 Y-6.765 Z110.732 A0. C0.
X7.027 Y-7.999 Z110.732 A0. C0.
X8.97 Y-9.557 Z110.732 A0. C0.
X13.949 Y-13.431 Z110.732 A0. C0.
X17.451 Y-16.112 Z110.732 A0. C0.
X20.872 Y-18.664 Z110.732 A0. C0.
X21.835 Y-19.458 Z110.732 A0. C0.
X22.474 Y-20.101 Z110.732 A0. C0.
X22.911 Y-20.667 Z110.732 A0. C0.
X23.241 Y-21.238 Z110.732 A0. C0.
X23.5 Y-21.914 Z110.732 A0. C0.
X23.541 Y-21.975 Z110.732 A0. C0.
X23.533 Y-22.266 Z110.732 A0. C0.
X23.467 Y-22.646 Z110.732 A0. C0.
X23.277 Y-23.122 Z110.732 A0. C0.
X23.129 Y-23.391 Z110.732 A0. C0.
X22.891 Y-23.687 Z110.732 A0. C0.
X22.514 Y-23.982 Z110.732 A0. C0.
X22.103 Y-24.227 Z110.732 A0. C0.
X21.671 Y-24.321 Z110.732 A0. C0.
X21.661 Y-24.323 Z110.732 A0. C0.
/M718 ;LASER OFF
G0 X19.438 Y-23.289
/M01
/M717 ;LASER ON
G1 X19.448 Y-23.289 Z110.732 A0. C0.
X22.693 Y-23.289 Z110.732 A0. C0.
X22.703 Y-23.289 Z110.732 A0. C0.
/M718 ;LASER OFF
G0 X18.289 Y-22.662
/M01
/M717 ;LASER ON
G1 X18.299 Y-22.662 Z110.732 A0. C0.
X23.026 Y-22.662 Z110.732 A0. C0.
X23.036 Y-22.662 Z110.732 A0. C0.
/M718 ;LASER OFF
G0 X17.249 Y-22.036
/M01
/M717 ;LASER ON
G1 X17.259 Y-22.036 Z110.732 A0. C0.
X23.114 Y-22.036 Z110.732 A0. C0.
X23.124 Y-22.036 Z110.732 A0. C0.
/M718 ;LASER OFF
G0 X16.301 Y-21.41
/M01
/M717 ;LASER ON
G1 X16.311 Y-21.41 Z110.732 A0. C0.
X22.874 Y-21.41 Z110.732 A0. C0.
X22.884 Y-21.41 Z110.732 A0. C0.
/M718 ;LASER OFF
G0 X15.353 Y-20.784
/M01
/M717 ;LASER ON
G1 X15.363 Y-20.784 Z110.732 A0. C0.
X22.491 Y-20.784 Z110.732 A0. C0.
X22.501 Y-20.784 Z110.732 A0. C0.
/M718 ;LASER OFF
G0 X14.417 Y-20.157
/M01
/M717 ;LASER ON
G1 X14.427 Y-20.157 Z110.732 A0. C0.
X21.96 Y-20.157 Z110.732 A0. C0.
X21.97 Y-20.157 Z110.732 A0. C0.
/M718 ;LASER OFF
G0 X13.52 Y-19.531
/M01
/M717 ;LASER ON
G1 X13.53 Y-19.531 Z110.732 A0. C0.
X21.288 Y-19.531 Z110.732 A0. C0.
X21.298 Y-19.531 Z110.732 A0. C0.
/M718 ;LASER OFF
G0 X12.623 Y-18.905
/M01
/M717 ;LASER ON
G1 X12.633 Y-18.905 Z110.732 A0. C0.
X20.52 Y-18.905 Z110.732 A0. C0.
X20.53 Y-18.905 Z110.732 A0. C0.
/M718 ;LASER OFF
G0 X11.725 Y-18.279
/M01
/M717 ;LASER ON
G1 X11.735 Y-18.279 Z110.732 A0. C0.
X19.68 Y-18.279 Z110.732 A0. C0.
X19.69 Y-18.279 Z110.732 A0. C0.
/M718 ;LASER OFF
G0 X10.83 Y-17.652
/M01
/M717 ;LASER ON
G1 X10.84 Y-17.652 Z110.732 A0. C0.
X18.841 Y-17.652 Z110.732 A0. C0.
X18.851 Y-17.652 Z110.732 A0. C0.
/M718 ;LASER OFF
G0 X9.968 Y-17.026
/M01
/M717 ;LASER ON
G1 X9.978 Y-17.026 Z110.732 A0. C0.
X18.001 Y-17.026 Z110.732 A0. C0.
X18.011 Y-17.026 Z110.732 A0. C0.
/M718 ;LASER OFF
G0 X9.106 Y-16.4
/M01
/M717 ;LASER ON
G1 X9.116 Y-16.4 Z110.732 A0. C0.
X17.163 Y-16.4 Z110.732 A0. C0.
X17.173 Y-16.4 Z110.732 A0. C0.
/M718 ;LASER OFF
G0 X8.244 Y-15.774
/M01
/M717 ;LASER ON
G1 X8.254 Y-15.774 Z110.732 A0. C0.
X16.344 Y-15.774 Z110.732 A0. C0.
X16.354 Y-15.774 Z110.732 A0. C0.
/M718 ;LASER OFF
G0 X7.399 Y-15.147
/M01
/M717 ;LASER ON
G1 X7.409 Y-15.147 Z110.732 A0. C0.
X15.526 Y-15.147 Z110.732 A0. C0.
X15.536 Y-15.147 Z110.732 A0. C0.
/M718 ;LASER OFF
G0 X6.569 Y-14.521
/M01
/M717 ;LASER ON
G1 X6.579 Y-14.521 Z110.732 A0. C0.
X14.708 Y-14.521 Z110.732 A0. C0.
X14.718 Y-14.521 Z110.732 A0. C0.
/M718 ;LASER OFF
G0 X5.74 Y-13.895
/M01
/M717 ;LASER ON
G1 X5.75 Y-13.895 Z110.732 A0. C0.
X13.89 Y-13.895 Z110.732 A0. C0.
X13.9 Y-13.895 Z110.732 A0. C0.
/M718 ;LASER OFF
G0 X4.911 Y-13.269
/M01
/M717 ;LASER ON
G1 X4.921 Y-13.269 Z110.732 A0. C0.
X13.082 Y-13.269 Z110.732 A0. C0.
X13.092 Y-13.269 Z110.732 A0. C0.
/M718 ;LASER OFF
G0 X4.098 Y-12.642
/M01
/M717 ;LASER ON
G1 X4.108 Y-12.642 Z110.732 A0. C0.
X12.277 Y-12.642 Z110.732 A0. C0.
X12.287 Y-12.642 Z110.732 A0. C0.
/M718 ;LASER OFF
G0 X3.301 Y-12.016
/M01
/M717 ;LASER ON
G1 X3.311 Y-12.016 Z110.732 A0. C0.
X11.472 Y-12.016 Z110.732 A0. C0.
X11.482 Y-12.016 Z110.732 A0. C0.
/M718 ;LASER OFF
G0 X2.504 Y-11.39
/M01
/M717 ;LASER ON
G1 X2.514 Y-11.39 Z110.732 A0. C0.
X10.667 Y-11.39 Z110.732 A0. C0.
X10.677 Y-11.39 Z110.732 A0. C0.
/M718 ;LASER OFF
G0 X1.747 Y-10.764
/M01
/M717 ;LASER ON
G1 X1.757 Y-10.764 Z110.732 A0. C0.
X9.862 Y-10.764 Z110.732 A0. C0.
X9.872 Y-10.764 Z110.732 A0. C0.
/M718 ;LASER OFF
G0 X.99 Y-10.137
/M01
/M717 ;LASER ON
G1 X1. Y-10.137 Z110.732 A0. C0.
X9.058 Y-10.137 Z110.732 A0. C0.
X9.068 Y-10.137 Z110.732 A0. C0.
/M718 ;LASER OFF
G0 X.232 Y-9.511
/M01
/M717 ;LASER ON
G1 X.242 Y-9.511 Z110.732 A0. C0.
X8.266 Y-9.511 Z110.732 A0. C0.
X8.276 Y-9.511 Z110.732 A0. C0.
/M718 ;LASER OFF
G0 X-.5 Y-8.885
/M01
/M717 ;LASER ON
G1 X-.49 Y-8.885 Z110.732 A0. C0.
X7.485 Y-8.885 Z110.732 A0. C0.
X7.495 Y-8.885 Z110.732 A0. C0.
/M718 ;LASER OFF
G0 X-1.227 Y-8.259
/M01
/M717 ;LASER ON
G1 X-1.217 Y-8.259 Z110.732 A0. C0.
X6.706 Y-8.259 Z110.732 A0. C0.
X6.716 Y-8.259 Z110.732 A0. C0.
/M718 ;LASER OFF
G0 X-1.953 Y-7.632
/M01
/M717 ;LASER ON
G1 X-1.943 Y-7.632 Z110.732 A0. C0.
X5.949 Y-7.632 Z110.732 A0. C0.
X5.959 Y-7.632 Z110.732 A0. C0.
/M718 ;LASER OFF
G0 X-2.658 Y-7.006
/M01
/M717 ;LASER ON
G1 X-2.648 Y-7.006 Z110.732 A0. C0.
X5.195 Y-7.006 Z110.732 A0. C0.
X5.205 Y-7.006 Z110.732 A0. C0.
/M718 ;LASER OFF
G0 X-3.363 Y-6.38
/M01
/M717 ;LASER ON
G1 X-3.353 Y-6.38 Z110.732 A0. C0.
X4.46 Y-6.38 Z110.732 A0. C0.
X4.47 Y-6.38 Z110.732 A0. C0.
/M718 ;LASER OFF
G0 X-4.043 Y-5.753
/M01
/M717 ;LASER ON
G1 X-4.033 Y-5.753 Z110.732 A0. C0.
X3.726 Y-5.753 Z110.732 A0. C0.
X3.736 Y-5.753 Z110.732 A0. C0.
/M718 ;LASER OFF
G0 X-4.722 Y-5.127
/M01
/M717 ;LASER ON
G1 X-4.712 Y-5.127 Z110.732 A0. C0.
X3.004 Y-5.127 Z110.732 A0. C0.
X3.014 Y-5.127 Z110.732 A0. C0.
/M718 ;LASER OFF
G0 X-5.384 Y-4.501
/M01
/M717 ;LASER ON
G1 X-5.374 Y-4.501 Z110.732 A0. C0.
X2.293 Y-4.501 Z110.732 A0. C0.
X2.303 Y-4.501 Z110.732 A0. C0.
/M718 ;LASER OFF
G0 X-6.04 Y-3.875
/M01
/M717 ;LASER ON
G1 X-6.03 Y-3.875 Z110.732 A0. C0.
X1.591 Y-3.875 Z110.732 A0. C0.
X1.601 Y-3.875 Z110.732 A0. C0.
/M718 ;LASER OFF
G0 X-6.669 Y-3.248
/M01
/M717 ;LASER ON
G1 X-6.659 Y-3.248 Z110.732 A0. C0.
X.9 Y-3.248 Z110.732 A0. C0.
X.91 Y-3.248 Z110.732 A0. C0.
/M718 ;LASER OFF
G0 X-7.296 Y-2.622
/M01
/M717 ;LASER ON
G1 X-7.286 Y-2.622 Z110.732 A0. C0.
X.208 Y-2.622 Z110.732 A0. C0.
X.218 Y-2.622 Z110.732 A0. C0.
/M718 ;LASER OFF
G0 X-7.917 Y-1.996
/M01
/M717 ;LASER ON
G1 X-7.907 Y-1.996 Z110.732 A0. C0.
X-.464 Y-1.996 Z110.732 A0. C0.
X-.454 Y-1.996 Z110.732 A0. C0.
/M718 ;LASER OFF
G0 X-8.515 Y-1.37
/M01
/M717 ;LASER ON
G1 X-8.505 Y-1.37 Z110.732 A0. C0.
X-1.134 Y-1.37 Z110.732 A0. C0.
X-1.124 Y-1.37 Z110.732 A0. C0.
/M718 ;LASER OFF
G0 X-9.113 Y-.743
/M01
/M717 ;LASER ON
G1 X-9.103 Y-.743 Z110.732 A0. C0.
X-1.782 Y-.743 Z110.732 A0. C0.
X-1.772 Y-.743 Z110.732 A0. C0.
/M718 ;LASER OFF
G0 X-9.691 Y-.117
/M01
/M717 ;LASER ON
G1 X-9.681 Y-.117 Z110.732 A0. C0.
X-2.424 Y-.117 Z110.732 A0. C0.
X-2.414 Y-.117 Z110.732 A0. C0.
/M718 ;LASER OFF
G0 X-10.26 Y.509
/M01
/M717 ;LASER ON
G1 X-10.25 Y.509 Z110.732 A0. C0.
X-3.067 Y.509 Z110.732 A0. C0.
X-3.057 Y.509 Z110.732 A0. C0.
/M718 ;LASER OFF
G0 X-10.823 Y1.135
/M01
/M717 ;LASER ON
G1 X-10.813 Y1.135 Z110.732 A0. C0.
X-3.698 Y1.135 Z110.732 A0. C0.
X-3.688 Y1.135 Z110.732 A0. C0.
/M718 ;LASER OFF
G0 X-11.367 Y1.762
/M01
/M717 ;LASER ON
G1 X-11.357 Y1.762 Z110.732 A0. C0.
X-4.308 Y1.762 Z110.732 A0. C0.
X-4.298 Y1.762 Z110.732 A0. C0.
/M718 ;LASER OFF
G0 X-11.911 Y2.388
/M01
/M717 ;LASER ON
G1 X-11.901 Y2.388 Z110.732 A0. C0.
X-4.904 Y2.388 Z110.732 A0. C0.
X-4.894 Y2.388 Z110.732 A0. C0.
/M718 ;LASER OFF
G0 X-12.427 Y3.014
/M01
/M717 ;LASER ON
G1 X-12.417 Y3.014 Z110.732 A0. C0.
X-5.492 Y3.014 Z110.732 A0. C0.
X-5.482 Y3.014 Z110.732 A0. C0.
/M718 ;LASER OFF
G0 X-12.944 Y3.64
/M01
/M717 ;LASER ON
G1 X-12.934 Y3.64 Z110.732 A0. C0.
X-6.076 Y3.64 Z110.732 A0. C0.
X-6.066 Y3.64 Z110.732 A0. C0.
/M718 ;LASER OFF
G0 X-13.455 Y4.267
/M01
/M717 ;LASER ON
G1 X-13.445 Y4.267 Z110.732 A0. C0.
X-6.637 Y4.267 Z110.732 A0. C0.
X-6.627 Y4.267 Z110.732 A0. C0.
/M718 ;LASER OFF
G0 X-13.948 Y4.893
/M01
/M717 ;LASER ON
G1 X-13.938 Y4.893 Z110.732 A0. C0.
X-7.197 Y4.893 Z110.732 A0. C0.
X-7.187 Y4.893 Z110.732 A0. C0.
/M718 ;LASER OFF
G0 X-14.441 Y5.519
/M01
/M717 ;LASER ON
G1 X-14.431 Y5.519 Z110.732 A0. C0.
X-7.741 Y5.519 Z110.732 A0. C0.
X-7.731 Y5.519 Z110.732 A0. C0.
/M718 ;LASER OFF
G0 X-14.914 Y6.145
/M01
/M717 ;LASER ON
G1 X-14.904 Y6.145 Z110.732 A0. C0.
X-8.271 Y6.145 Z110.732 A0. C0.
X-8.261 Y6.145 Z110.732 A0. C0.
/M718 ;LASER OFF
G0 X-15.385 Y6.772
/M01
/M717 ;LASER ON
G1 X-15.375 Y6.772 Z110.732 A0. C0.
X-8.802 Y6.772 Z110.732 A0. C0.
X-8.792 Y6.772 Z110.732 A0. C0.
/M718 ;LASER OFF
G0 X-15.849 Y7.398
/M01
/M717 ;LASER ON
G1 X-15.839 Y7.398 Z110.732 A0. C0.
X-9.332 Y7.398 Z110.732 A0. C0.
X-9.322 Y7.398 Z110.732 A0. C0.
/M718 ;LASER OFF
G0 X-16.3 Y8.024
/M01
/M717 ;LASER ON
G1 X-16.29 Y8.024 Z110.732 A0. C0.
X-9.863 Y8.024 Z110.732 A0. C0.
X-9.853 Y8.024 Z110.732 A0. C0.
/M718 ;LASER OFF
G0 X-16.752 Y8.65
/M01
/M717 ;LASER ON
G1 X-16.742 Y8.65 Z110.732 A0. C0.
X-10.375 Y8.65 Z110.732 A0. C0.
X-10.365 Y8.65 Z110.732 A0. C0.
/M718 ;LASER OFF
G0 X-17.193 Y9.277
/M01
/M717 ;LASER ON
G1 X-17.183 Y9.277 Z110.732 A0. C0.
X-10.882 Y9.277 Z110.732 A0. C0.
X-10.872 Y9.277 Z110.732 A0. C0.
/M718 ;LASER OFF
G0 X-17.628 Y9.903
/M01
/M717 ;LASER ON
G1 X-17.618 Y9.903 Z110.732 A0. C0.
X-11.388 Y9.903 Z110.732 A0. C0.
X-11.378 Y9.903 Z110.732 A0. C0.
/M718 ;LASER OFF
G0 X-18.063 Y10.529
/M01
/M717 ;LASER ON
G1 X-18.053 Y10.529 Z110.732 A0. C0.
X-11.928 Y10.529 Z110.732 A0. C0.
X-11.918 Y10.529 Z110.732 A0. C0.
/M718 ;LASER OFF
G0 X-18.491 Y11.155
/M01
/M717 ;LASER ON
G1 X-18.481 Y11.155 Z110.732 A0. C0.
X-12.398 Y11.155 Z110.732 A0. C0.
X-12.388 Y11.155 Z110.732 A0. C0.
/M718 ;LASER OFF
G0 X-18.91 Y11.782
/M01
/M717 ;LASER ON
G1 X-18.9 Y11.782 Z110.732 A0. C0.
X-12.868 Y11.782 Z110.732 A0. C0.
X-12.858 Y11.782 Z110.732 A0. C0.
/M718 ;LASER OFF
G0 X-19.33 Y12.408
/M01
/M717 ;LASER ON
G1 X-19.32 Y12.408 Z110.732 A0. C0.
X-13.36 Y12.408 Z110.732 A0. C0.
X-13.35 Y12.408 Z110.732 A0. C0.
/M718 ;LASER OFF
G0 X-19.749 Y13.034
/M01
/M717 ;LASER ON
G1 X-19.739 Y13.034 Z110.732 A0. C0.
X-13.854 Y13.034 Z110.732 A0. C0.
X-13.844 Y13.034 Z110.732 A0. C0.
/M718 ;LASER OFF
G0 X-20.165 Y13.66
/M01
/M717 ;LASER ON
G1 X-20.155 Y13.66 Z110.732 A0. C0.
X-14.342 Y13.66 Z110.732 A0. C0.
X-14.332 Y13.66 Z110.732 A0. C0.
/M718 ;LASER OFF
G0 X-20.568 Y14.287
/M01
/M717 ;LASER ON
G1 X-20.558 Y14.287 Z110.732 A0. C0.
X-14.814 Y14.287 Z110.732 A0. C0.
X-14.804 Y14.287 Z110.732 A0. C0.
/M718 ;LASER OFF
G0 X-20.972 Y14.913
/M01
/M717 ;LASER ON
G1 X-20.962 Y14.913 Z110.732 A0. C0.
X-15.286 Y14.913 Z110.732 A0. C0.
X-15.276 Y14.913 Z110.732 A0. C0.
/M718 ;LASER OFF
G0 X-21.375 Y15.539
/M01
/M717 ;LASER ON
G1 X-21.365 Y15.539 Z110.732 A0. C0.
X-15.758 Y15.539 Z110.732 A0. C0.
X-15.748 Y15.539 Z110.732 A0. C0.
/M718 ;LASER OFF
G0 X-21.778 Y16.165
/M01
/M717 ;LASER ON
G1 X-21.768 Y16.165 Z110.732 A0. C0.
X-16.229 Y16.165 Z110.732 A0. C0.
X-16.219 Y16.165 Z110.732 A0. C0.
/M718 ;LASER OFF
G0 X-22.181 Y16.792
/M01
/M717 ;LASER ON
G1 X-22.171 Y16.792 Z110.732 A0. C0.
X-16.701 Y16.792 Z110.732 A0. C0.
X-16.691 Y16.792 Z110.732 A0. C0.
/M718 ;LASER OFF
G0 X-22.584 Y17.418
/M01
/M717 ;LASER ON
G1 X-22.574 Y17.418 Z110.732 A0. C0.
X-17.173 Y17.418 Z110.732 A0. C0.
X-17.163 Y17.418 Z110.732 A0. C0.
/M718 ;LASER OFF
G0 X-22.97 Y18.044
/M01
/M717 ;LASER ON
G1 X-22.96 Y18.044 Z110.732 A0. C0.
X-17.645 Y18.044 Z110.732 A0. C0.
X-17.635 Y18.044 Z110.732 A0. C0.
/M718 ;LASER OFF
G0 X-23.354 Y18.67
/M01
/M717 ;LASER ON
G1 X-23.344 Y18.67 Z110.732 A0. C0.
X-18.117 Y18.67 Z110.732 A0. C0.
X-18.107 Y18.67 Z110.732 A0. C0.
/M718 ;LASER OFF
G0 X-23.732 Y19.297
/M01
/M717 ;LASER ON
G1 X-23.722 Y19.297 Z110.732 A0. C0.
X-18.602 Y19.297 Z110.732 A0. C0.
X-18.592 Y19.297 Z110.732 A0. C0.
/M718 ;LASER OFF
G0 X-24.093 Y19.923
/M01
/M717 ;LASER ON
G1 X-24.083 Y19.923 Z110.732 A0. C0.
X-19.095 Y19.923 Z110.732 A0. C0.
X-19.085 Y19.923 Z110.732 A0. C0.
/M718 ;LASER OFF
G0 X-24.432 Y20.549
/M01
/M717 ;LASER ON
G1 X-24.422 Y20.549 Z110.732 A0. C0.
X-19.593 Y20.549 Z110.732 A0. C0.
X-19.583 Y20.549 Z110.732 A0. C0.
/M718 ;LASER OFF
G0 X-24.521 Y21.175
/M01
/M717 ;LASER ON
G1 X-24.511 Y21.175 Z110.732 A0. C0.
X-20.113 Y21.175 Z110.732 A0. C0.
X-20.103 Y21.175 Z110.732 A0. C0.
/M718 ;LASER OFF
G0 X-24.39 Y21.802
/M01
/M717 ;LASER ON
G1 X-24.38 Y21.802 Z110.732 A0. C0.
X-20.665 Y21.802 Z110.732 A0. C0.
X-20.655 Y21.802 Z110.732 A0. C0.
/M718 ;LASER OFF
G0 X-23.996 Y22.428
/M01
/M717 ;LASER ON
G1 X-23.986 Y22.428 Z110.732 A0. C0.
X-21.248 Y22.428 Z110.732 A0. C0.
X-21.238 Y22.428 Z110.732 A0. C0.
/M718 ;LASER OFF
/M722
/G4 F170
/M721
/G4 F10
CYCLE832()
G64
TRAFOOF
G54
CYCLE832(.025,_FINISH,1)
TRAORI(2)
G54
G0 X-21.238 Y22.428 Z110.882 A0. C0.
X20.304 Y-24.127
/M01
/M717 ;LASER ON
G1 X20.295 Y-24.123 Z110.882 A0. C0.
X19.764 Y-23.883 Z110.882 A0. C0.
X18.868 Y-23.426 Z110.882 A0. C0.
X17.947 Y-22.906 Z110.882 A0. C0.
X17.037 Y-22.352 Z110.882 A0. C0.
X14.397 Y-20.609 Z110.882 A0. C0.
X10.687 Y-18.022 Z110.882 A0. C0.
X7.389 Y-15.625 Z110.882 A0. C0.
X4.253 Y-13.261 Z110.882 A0. C0.
X2.189 Y-11.641 Z110.882 A0. C0.
X-.324 Y-9.56 Z110.882 A0. C0.
X-2.122 Y-8.015 Z110.882 A0. C0.
X-3.659 Y-6.651 Z110.882 A0. C0.
X-6.645 Y-3.846 Z110.882 A0. C0.
X-8.288 Y-2.199 Z110.882 A0. C0.
X-9.578 Y-.846 Z110.882 A0. C0.
X-10.882 Y.578 Z110.882 A0. C0.
X-12.223 Y2.117 Z110.882 A0. C0.
X-13.569 Y3.744 Z110.882 A0. C0.
X-14.818 Y5.326 Z110.882 A0. C0.
X-16.029 Y6.93 Z110.882 A0. C0.
X-17.343 Y8.751 Z110.882 A0. C0.
X-18.78 Y10.822 Z110.882 A0. C0.
X-20.484 Y13.364 Z110.882 A0. C0.
X-22.976 Y17.224 Z110.882 A0. C0.
X-24.033 Y18.948 Z110.882 A0. C0.
X-24.81 Y20.295 Z110.882 A0. C0.
X-24.904 Y20.608 Z110.882 A0. C0.
X-24.949 Y20.861 Z110.882 A0. C0.
X-24.957 Y21.123 Z110.882 A0. C0.
X-24.932 Y21.441 Z110.882 A0. C0.
X-24.872 Y21.707 Z110.882 A0. C0.
X-24.753 Y22.05 Z110.882 A0. C0.
X-24.458 Y22.532 Z110.882 A0. C0.
X-24.095 Y22.931 Z110.882 A0. C0.
X-23.697 Y23.201 Z110.882 A0. C0.
X-23.405 Y23.321 Z110.882 A0. C0.
X-22.85 Y23.453 Z110.882 A0. C0.
X-22.603 Y23.471 Z110.882 A0. C0.
X-22.106 Y23.426 Z110.882 A0. C0.
X-21.549 Y23.244 Z110.882 A0. C0.
X-20.676 Y22.36 Z110.882 A0. C0.
X-19.958 Y21.555 Z110.882 A0. C0.
X-19.246 Y20.703 Z110.882 A0. C0.
X-17.857 Y18.94 Z110.882 A0. C0.
X-15.232 Y15.44 Z110.882 A0. C0.
X-13.751 Y13.506 Z110.882 A0. C0.
X-12.687 Y12.157 Z110.882 A0. C0.
X-11.542 Y10.647 Z110.882 A0. C0.
X-11.397 Y10.514 Z110.882 A0. C0.
X-9.804 Y8.547 Z110.882 A0. C0.
X-8.616 Y7.124 Z110.882 A0. C0.
X-6.97 Y5.216 Z110.882 A0. C0.
X-5.771 Y3.88 Z110.882 A0. C0.
X-4.171 Y2.18 Z110.882 A0. C0.
X-3.219 Y1.206 Z110.882 A0. C0.
X-1.1 Y-.858 Z110.882 A0. C0.
X.364 Y-2.227 Z110.882 A0. C0.
X3.611 Y-5.126 Z110.882 A0. C0.
X6.959 Y-7.939 Z110.882 A0. C0.
X8.832 Y-9.439 Z110.882 A0. C0.
X13.886 Y-13.368 Z110.882 A0. C0.
X17.389 Y-16.047 Z110.882 A0. C0.
X20.936 Y-18.689 Z110.882 A0. C0.
X21.58 Y-19.209 Z110.882 A0. C0.
X22.198 Y-19.776 Z110.882 A0. C0.
X22.544 Y-20.153 Z110.882 A0. C0.
X22.916 Y-20.644 Z110.882 A0. C0.
X23.263 Y-21.247 Z110.882 A0. C0.
X23.426 Y-21.627 Z110.882 A0. C0.
X23.504 Y-21.887 Z110.882 A0. C0.
X23.554 Y-21.962 Z110.882 A0. C0.
X23.551 Y-22.194 Z110.882 A0. C0.
X23.482 Y-22.634 Z110.882 A0. C0.
X23.295 Y-23.102 Z110.882 A0. C0.
X23.14 Y-23.384 Z110.882 A0. C0.
X22.93 Y-23.655 Z110.882 A0. C0.
X22.527 Y-23.97 Z110.882 A0. C0.
X22.102 Y-24.216 Z110.882 A0. C0.
X21.78 Y-24.298 Z110.882 A0. C0.
X21.136 Y-24.331 Z110.882 A0. C0.
X20.67 Y-24.257 Z110.882 A0. C0.
X20.66 Y-24.255 Z110.882 A0. C0.
/M718 ;LASER OFF
G0 X22.492 Y-23.495
/M01
/M717 ;LASER ON
G1 X22.492 Y-23.485 Z110.882 A0. C0.
X22.492 Y-20.752 Z110.882 A0. C0.
X22.492 Y-20.742 Z110.882 A0. C0.
/M718 ;LASER OFF
G0 X21.865 Y-23.869
/M01
/M717 ;LASER ON
G1 X21.865 Y-23.859 Z110.882 A0. C0.
X21.865 Y-20.019 Z110.882 A0. C0.
X21.865 Y-20.009 Z110.882 A0. C0.
/M718 ;LASER OFF
G0 X21.238 Y-23.936
/M01
/M717 ;LASER ON
G1 X21.238 Y-23.926 Z110.882 A0. C0.
X21.238 Y-19.452 Z110.882 A0. C0.
X21.238 Y-19.442 Z110.882 A0. C0.
/M718 ;LASER OFF
G0 X20.611 Y-23.833
/M01
/M717 ;LASER ON
G1 X20.611 Y-23.823 Z110.882 A0. C0.
X20.611 Y-18.951 Z110.882 A0. C0.
X20.611 Y-18.941 Z110.882 A0. C0.
/M718 ;LASER OFF
G0 X19.984 Y-23.549
/M01
/M717 ;LASER ON
G1 X19.984 Y-23.539 Z110.882 A0. C0.
X19.984 Y-18.484 Z110.882 A0. C0.
X19.984 Y-18.474 Z110.882 A0. C0.
/M718 ;LASER OFF
G0 X19.357 Y-23.232
/M01
/M717 ;LASER ON
G1 X19.357 Y-23.222 Z110.882 A0. C0.
X19.357 Y-18.017 Z110.882 A0. C0.
X19.357 Y-18.007 Z110.882 A0. C0.
/M718 ;LASER OFF
G0 X18.73 Y-22.895
/M01
/M717 ;LASER ON
G1 X18.73 Y-22.885 Z110.882 A0. C0.
X18.73 Y-17.55 Z110.882 A0. C0.
X18.73 Y-17.54 Z110.882 A0. C0.
/M718 ;LASER OFF
G0 X18.104 Y-22.539
/M01
/M717 ;LASER ON
G1 X18.104 Y-22.529 Z110.882 A0. C0.
X18.104 Y-17.083 Z110.882 A0. C0.
X18.104 Y-17.073 Z110.882 A0. C0.
/M718 ;LASER OFF
G0 X17.477 Y-22.157
/M01
/M717 ;LASER ON
G1 X17.477 Y-22.147 Z110.882 A0. C0.
X17.477 Y-16.616 Z110.882 A0. C0.
X17.477 Y-16.606 Z110.882 A0. C0.
/M718 ;LASER OFF
G0 X16.85 Y-21.755
/M01
/M717 ;LASER ON
G1 X16.85 Y-21.745 Z110.882 A0. C0.
X16.85 Y-16.143 Z110.882 A0. C0.
X16.85 Y-16.133 Z110.882 A0. C0.
/M718 ;LASER OFF
G0 X16.223 Y-21.341
/M01
/M717 ;LASER ON
G1 X16.223 Y-21.331 Z110.882 A0. C0.
X16.223 Y-15.664 Z110.882 A0. C0.
X16.223 Y-15.654 Z110.882 A0. C0.
/M718 ;LASER OFF
G0 X15.596 Y-20.927
/M01
/M717 ;LASER ON
G1 X15.596 Y-20.917 Z110.882 A0. C0.
X15.596 Y-15.184 Z110.882 A0. C0.
X15.596 Y-15.174 Z110.882 A0. C0.
/M718 ;LASER OFF
G0 X14.969 Y-20.513
/M01
/M717 ;LASER ON
G1 X14.969 Y-20.503 Z110.882 A0. C0.
X14.969 Y-14.705 Z110.882 A0. C0.
X14.969 Y-14.695 Z110.882 A0. C0.
/M718 ;LASER OFF
G0 X14.343 Y-20.088
/M01
/M717 ;LASER ON
G1 X14.343 Y-20.078 Z110.882 A0. C0.
X14.343 Y-14.226 Z110.882 A0. C0.
X14.343 Y-14.216 Z110.882 A0. C0.
/M718 ;LASER OFF
G0 X13.716 Y-19.651
/M01
/M717 ;LASER ON
G1 X13.716 Y-19.641 Z110.882 A0. C0.
X13.716 Y-13.746 Z110.882 A0. C0.
X13.716 Y-13.736 Z110.882 A0. C0.
/M718 ;LASER OFF
G0 X13.089 Y-19.214
/M01
/M717 ;LASER ON
G1 X13.089 Y-19.204 Z110.882 A0. C0.
X13.089 Y-13.26 Z110.882 A0. C0.
X13.089 Y-13.25 Z110.882 A0. C0.
/M718 ;LASER OFF
G0 X12.462 Y-18.777
/M01
/M717 ;LASER ON
G1 X12.462 Y-18.767 Z110.882 A0. C0.
X12.462 Y-12.773 Z110.882 A0. C0.
X12.462 Y-12.763 Z110.882 A0. C0.
/M718 ;LASER OFF
G0 X11.835 Y-18.34
/M01
/M717 ;LASER ON
G1 X11.835 Y-18.33 Z110.882 A0. C0.
X11.835 Y-12.285 Z110.882 A0. C0.
X11.835 Y-12.275 Z110.882 A0. C0.
/M718 ;LASER OFF
G0 X11.208 Y-17.903
/M01
/M717 ;LASER ON
G1 X11.208 Y-17.893 Z110.882 A0. C0.
X11.208 Y-11.798 Z110.882 A0. C0.
X11.208 Y-11.788 Z110.882 A0. C0.
/M718 ;LASER OFF
G0 X10.581 Y-17.456
/M01
/M717 ;LASER ON
G1 X10.581 Y-17.446 Z110.882 A0. C0.
X10.581 Y-11.311 Z110.882 A0. C0.
X10.581 Y-11.301 Z110.882 A0. C0.
/M718 ;LASER OFF
G0 X9.955 Y-17.
/M01
/M717 ;LASER ON
G1 X9.955 Y-16.99 Z110.882 A0. C0.
X9.955 Y-10.823 Z110.882 A0. C0.
X9.955 Y-10.813 Z110.882 A0. C0.
/M718 ;LASER OFF
G0 X9.328 Y-16.545
/M01
/M717 ;LASER ON
G1 X9.328 Y-16.535 Z110.882 A0. C0.
X9.328 Y-10.336 Z110.882 A0. C0.
X9.328 Y-10.326 Z110.882 A0. C0.
/M718 ;LASER OFF
G0 X8.701 Y-16.089
/M01
/M717 ;LASER ON
G1 X8.701 Y-16.079 Z110.882 A0. C0.
X8.701 Y-9.849 Z110.882 A0. C0.
X8.701 Y-9.839 Z110.882 A0. C0.
/M718 ;LASER OFF
G0 X8.074 Y-15.633
/M01
/M717 ;LASER ON
G1 X8.074 Y-15.623 Z110.882 A0. C0.
X8.074 Y-9.349 Z110.882 A0. C0.
X8.074 Y-9.339 Z110.882 A0. C0.
/M718 ;LASER OFF
G0 X7.447 Y-15.173
/M01
/M717 ;LASER ON
G1 X7.447 Y-15.163 Z110.882 A0. C0.
X7.447 Y-8.847 Z110.882 A0. C0.
X7.447 Y-8.837 Z110.882 A0. C0.
/M718 ;LASER OFF
G0 X6.82 Y-14.7
/M01
/M717 ;LASER ON
G1 X6.82 Y-14.69 Z110.882 A0. C0.
X6.82 Y-8.345 Z110.882 A0. C0.
X6.82 Y-8.335 Z110.882 A0. C0.
/M718 ;LASER OFF
G0 X6.193 Y-14.228
/M01
/M717 ;LASER ON
G1 X6.193 Y-14.218 Z110.882 A0. C0.
X6.193 Y-7.823 Z110.882 A0. C0.
X6.193 Y-7.813 Z110.882 A0. C0.
/M718 ;LASER OFF
G0 X5.567 Y-13.755
/M01
/M717 ;LASER ON
G1 X5.567 Y-13.745 Z110.882 A0. C0.
X5.567 Y-7.297 Z110.882 A0. C0.
X5.567 Y-7.287 Z110.882 A0. C0.
/M718 ;LASER OFF
G0 X4.94 Y-13.282
/M01
/M717 ;LASER ON
G1 X4.94 Y-13.272 Z110.882 A0. C0.
X4.94 Y-6.77 Z110.882 A0. C0.
X4.94 Y-6.76 Z110.882 A0. C0.
/M718 ;LASER OFF
G0 X4.313 Y-12.804
/M01
/M717 ;LASER ON
G1 X4.313 Y-12.794 Z110.882 A0. C0.
X4.313 Y-6.243 Z110.882 A0. C0.
X4.313 Y-6.233 Z110.882 A0. C0.
/M718 ;LASER OFF
G0 X3.686 Y-12.312
/M01
/M717 ;LASER ON
G1 X3.686 Y-12.302 Z110.882 A0. C0.
X3.686 Y-5.716 Z110.882 A0. C0.
X3.686 Y-5.706 Z110.882 A0. C0.
/M718 ;LASER OFF
G0 X3.059 Y-11.82
/M01
/M717 ;LASER ON
G1 X3.059 Y-11.81 Z110.882 A0. C0.
X3.059 Y-5.175 Z110.882 A0. C0.
X3.059 Y-5.165 Z110.882 A0. C0.
/M718 ;LASER OFF
G0 X2.432 Y-11.327
/M01
/M717 ;LASER ON
G1 X2.432 Y-11.317 Z110.882 A0. C0.
X2.432 Y-4.615 Z110.882 A0. C0.
X2.432 Y-4.605 Z110.882 A0. C0.
/M718 ;LASER OFF
G0 X1.806 Y-10.808
/M01
/M717 ;LASER ON
G1 X1.806 Y-10.798 Z110.882 A0. C0.
X1.806 Y-4.055 Z110.882 A0. C0.
X1.806 Y-4.045 Z110.882 A0. C0.
/M718 ;LASER OFF
G0 X1.179 Y-10.289
/M01
/M717 ;LASER ON
G1 X1.179 Y-10.279 Z110.882 A0. C0.
X1.179 Y-3.495 Z110.882 A0. C0.
X1.179 Y-3.485 Z110.882 A0. C0.
/M718 ;LASER OFF
G0 X.552 Y-9.77
/M01
/M717 ;LASER ON
G1 X.552 Y-9.76 Z110.882 A0. C0.
X.552 Y-2.936 Z110.882 A0. C0.
X.552 Y-2.926 Z110.882 A0. C0.
/M718 ;LASER OFF
G0 X-.075 Y-9.251
/M01
/M717 ;LASER ON
G1 X-.075 Y-9.241 Z110.882 A0. C0.
X-.075 Y-2.369 Z110.882 A0. C0.
X-.075 Y-2.359 Z110.882 A0. C0.
/M718 ;LASER OFF
G0 X-.702 Y-8.712
/M01
/M717 ;LASER ON
G1 X-.702 Y-8.702 Z110.882 A0. C0.
X-.702 Y-1.783 Z110.882 A0. C0.
X-.702 Y-1.773 Z110.882 A0. C0.
/M718 ;LASER OFF
G0 X-1.329 Y-8.174
/M01
/M717 ;LASER ON
G1 X-1.329 Y-8.164 Z110.882 A0. C0.
X-1.329 Y-1.197 Z110.882 A0. C0.
X-1.329 Y-1.187 Z110.882 A0. C0.
/M718 ;LASER OFF
G0 X-1.956 Y-7.632
/M01
/M717 ;LASER ON
G1 X-1.956 Y-7.622 Z110.882 A0. C0.
X-1.956 Y-.588 Z110.882 A0. C0.
X-1.956 Y-.578 Z110.882 A0. C0.
/M718 ;LASER OFF
G0 X-2.582 Y-7.076
/M01
/M717 ;LASER ON
G1 X-2.582 Y-7.066 Z110.882 A0. C0.
X-2.582 Y.022 Z110.882 A0. C0.
X-2.582 Y.032 Z110.882 A0. C0.
/M718 ;LASER OFF
G0 X-3.209 Y-6.52
/M01
/M717 ;LASER ON
G1 X-3.209 Y-6.51 Z110.882 A0. C0.
X-3.209 Y.633 Z110.882 A0. C0.
X-3.209 Y.643 Z110.882 A0. C0.
/M718 ;LASER OFF
G0 X-3.836 Y-5.94
/M01
/M717 ;LASER ON
G1 X-3.836 Y-5.93 Z110.882 A0. C0.
X-3.836 Y1.26 Z110.882 A0. C0.
X-3.836 Y1.27 Z110.882 A0. C0.
/M718 ;LASER OFF
G0 X-4.463 Y-5.351
/M01
/M717 ;LASER ON
G1 X-4.463 Y-5.341 Z110.882 A0. C0.
X-4.463 Y1.9 Z110.882 A0. C0.
X-4.463 Y1.91 Z110.882 A0. C0.
/M718 ;LASER OFF
G0 X-5.09 Y-4.763
/M01
/M717 ;LASER ON
G1 X-5.09 Y-4.753 Z110.882 A0. C0.
X-5.09 Y2.566 Z110.882 A0. C0.
X-5.09 Y2.576 Z110.882 A0. C0.
/M718 ;LASER OFF
G0 X-5.717 Y-4.174
/M01
/M717 ;LASER ON
G1 X-5.717 Y-4.164 Z110.882 A0. C0.
X-5.717 Y3.233 Z110.882 A0. C0.
X-5.717 Y3.243 Z110.882 A0. C0.
/M718 ;LASER OFF
G0 X-6.344 Y-3.585
/M01
/M717 ;LASER ON
G1 X-6.344 Y-3.575 Z110.882 A0. C0.
X-6.344 Y3.913 Z110.882 A0. C0.
X-6.344 Y3.923 Z110.882 A0. C0.
/M718 ;LASER OFF
G0 X-6.97 Y-2.958
/M01
/M717 ;LASER ON
G1 X-6.97 Y-2.948 Z110.882 A0. C0.
X-6.97 Y4.611 Z110.882 A0. C0.
X-6.97 Y4.621 Z110.882 A0. C0.
/M718 ;LASER OFF
G0 X-7.597 Y-2.329
/M01
/M717 ;LASER ON
G1 X-7.597 Y-2.319 Z110.882 A0. C0.
X-7.597 Y5.324 Z110.882 A0. C0.
X-7.597 Y5.334 Z110.882 A0. C0.
/M718 ;LASER OFF
G0 X-8.224 Y-1.69
/M01
/M717 ;LASER ON
G1 X-8.224 Y-1.68 Z110.882 A0. C0.
X-8.224 Y6.051 Z110.882 A0. C0.
X-8.224 Y6.061 Z110.882 A0. C0.
/M718 ;LASER OFF
G0 X-8.851 Y-1.033
/M01
/M717 ;LASER ON
G1 X-8.851 Y-1.023 Z110.882 A0. C0.
X-8.851 Y6.778 Z110.882 A0. C0.
X-8.851 Y6.788 Z110.882 A0. C0.
/M718 ;LASER OFF
G0 X-9.478 Y-.367
/M01
/M717 ;LASER ON
G1 X-9.478 Y-.357 Z110.882 A0. C0.
X-9.478 Y7.526 Z110.882 A0. C0.
X-9.478 Y7.536 Z110.882 A0. C0.
/M718 ;LASER OFF
G0 X-10.105 Y.318
/M01
/M717 ;LASER ON
G1 X-10.105 Y.328 Z110.882 A0. C0.
X-10.105 Y8.277 Z110.882 A0. C0.
X-10.105 Y8.287 Z110.882 A0. C0.
/M718 ;LASER OFF
G0 X-10.732 Y1.011
/M01
/M717 ;LASER ON
G1 X-10.732 Y1.021 Z110.882 A0. C0.
X-10.732 Y9.05 Z110.882 A0. C0.
X-10.732 Y9.06 Z110.882 A0. C0.
/M718 ;LASER OFF
G0 X-11.358 Y1.73
/M01
/M717 ;LASER ON
G1 X-11.358 Y1.74 Z110.882 A0. C0.
X-11.358 Y9.824 Z110.882 A0. C0.
X-11.358 Y9.834 Z110.882 A0. C0.
/M718 ;LASER OFF
G0 X-11.985 Y2.454
/M01
/M717 ;LASER ON
G1 X-11.985 Y2.464 Z110.882 A0. C0.
X-11.985 Y10.563 Z110.882 A0. C0.
X-11.985 Y10.573 Z110.882 A0. C0.
/M718 ;LASER OFF
G0 X-12.612 Y3.212
/M01
/M717 ;LASER ON
G1 X-12.612 Y3.222 Z110.882 A0. C0.
X-12.612 Y11.39 Z110.882 A0. C0.
X-12.612 Y11.4 Z110.882 A0. C0.
/M718 ;LASER OFF
G0 X-13.239 Y3.969
/M01
/M717 ;LASER ON
G1 X-13.239 Y3.979 Z110.882 A0. C0.
X-13.239 Y12.204 Z110.882 A0. C0.
X-13.239 Y12.214 Z110.882 A0. C0.
/M718 ;LASER OFF
G0 X-13.866 Y4.762
/M01
/M717 ;LASER ON
G1 X-13.866 Y4.772 Z110.882 A0. C0.
X-13.866 Y12.999 Z110.882 A0. C0.
X-13.866 Y13.009 Z110.882 A0. C0.
/M718 ;LASER OFF
G0 X-14.493 Y5.555
/M01
/M717 ;LASER ON
G1 X-14.493 Y5.565 Z110.882 A0. C0.
X-14.493 Y13.809 Z110.882 A0. C0.
X-14.493 Y13.819 Z110.882 A0. C0.
/M718 ;LASER OFF
G0 X-15.119 Y6.386
/M01
/M717 ;LASER ON
G1 X-15.119 Y6.396 Z110.882 A0. C0.
X-15.119 Y14.628 Z110.882 A0. C0.
X-15.119 Y14.638 Z110.882 A0. C0.
/M718 ;LASER OFF
G0 X-15.746 Y7.22
/M01
/M717 ;LASER ON
G1 X-15.746 Y7.23 Z110.882 A0. C0.
X-15.746 Y15.452 Z110.882 A0. C0.
X-15.746 Y15.462 Z110.882 A0. C0.
/M718 ;LASER OFF
G0 X-16.373 Y8.088
/M01
/M717 ;LASER ON
G1 X-16.373 Y8.098 Z110.882 A0. C0.
X-16.373 Y16.288 Z110.882 A0. C0.
X-16.373 Y16.298 Z110.882 A0. C0.
/M718 ;LASER OFF
G0 X-17. Y8.957
/M01
/M717 ;LASER ON
G1 X-17. Y8.967 Z110.882 A0. C0.
X-17. Y17.124 Z110.882 A0. C0.
X-17. Y17.134 Z110.882 A0. C0.
/M718 ;LASER OFF
G0 X-17.627 Y9.859
/M01
/M717 ;LASER ON
G1 X-17.627 Y9.869 Z110.882 A0. C0.
X-17.627 Y17.96 Z110.882 A0. C0.
X-17.627 Y17.97 Z110.882 A0. C0.
/M718 ;LASER OFF
G0 X-18.254 Y10.762
/M01
/M717 ;LASER ON
G1 X-18.254 Y10.772 Z110.882 A0. C0.
X-18.254 Y18.791 Z110.882 A0. C0.
X-18.254 Y18.801 Z110.882 A0. C0.
/M718 ;LASER OFF
G0 X-18.881 Y11.688
/M01
/M717 ;LASER ON
G1 X-18.881 Y11.698 Z110.882 A0. C0.
X-18.881 Y19.586 Z110.882 A0. C0.
X-18.881 Y19.596 Z110.882 A0. C0.
/M718 ;LASER OFF
G0 X-19.507 Y12.623
/M01
/M717 ;LASER ON
G1 X-19.507 Y12.633 Z110.882 A0. C0.
X-19.507 Y20.382 Z110.882 A0. C0.
X-19.507 Y20.392 Z110.882 A0. C0.
/M718 ;LASER OFF
G0 X-20.134 Y13.557
/M01
/M717 ;LASER ON
G1 X-20.134 Y13.567 Z110.882 A0. C0.
X-20.134 Y21.135 Z110.882 A0. C0.
X-20.134 Y21.145 Z110.882 A0. C0.
/M718 ;LASER OFF
G0 X-20.761 Y14.528
/M01
/M717 ;LASER ON
G1 X-20.761 Y14.538 Z110.882 A0. C0.
X-20.761 Y21.848 Z110.882 A0. C0.
X-20.761 Y21.858 Z110.882 A0. C0.
/M718 ;LASER OFF
G0 X-21.388 Y15.499
/M01
/M717 ;LASER ON
G1 X-21.388 Y15.509 Z110.882 A0. C0.
X-21.388 Y22.506 Z110.882 A0. C0.
X-21.388 Y22.516 Z110.882 A0. C0.
/M718 ;LASER OFF
G0 X-22.015 Y16.469
/M01
/M717 ;LASER ON
G1 X-22.015 Y16.479 Z110.882 A0. C0.
X-22.015 Y22.971 Z110.882 A0. C0.
X-22.015 Y22.981 Z110.882 A0. C0.
/M718 ;LASER OFF
G0 X-22.642 Y17.441
/M01
/M717 ;LASER ON
G1 X-22.642 Y17.451 Z110.882 A0. C0.
X-22.642 Y23.063 Z110.882 A0. C0.
X-22.642 Y23.073 Z110.882 A0. C0.
/M718 ;LASER OFF
G0 X-23.269 Y18.464
/M01
/M717 ;LASER ON
G1 X-23.269 Y18.474 Z110.882 A0. C0.
X-23.269 Y22.938 Z110.882 A0. C0.
X-23.269 Y22.948 Z110.882 A0. C0.
/M718 ;LASER OFF
G0 X-23.895 Y19.508
/M01
/M717 ;LASER ON
G1 X-23.895 Y19.518 Z110.882 A0. C0.
X-23.895 Y22.55 Z110.882 A0. C0.
X-23.895 Y22.56 Z110.882 A0. C0.
/M718 ;LASER OFF
/M722
/G4 F170
/M721
/G4 F10
CYCLE832()
G64
TRAFOOF
G54
CYCLE832(.025,_FINISH,1)
TRAORI(2)
G54
G0 X-23.895 Y22.56 Z111.032 A0. C0.
X19.412 Y-23.674
/M01
/M717 ;LASER ON
G1 X19.403 Y-23.67 Z111.032 A0. C0.
X18.864 Y-23.403 Z111.032 A0. C0.
X17.804 Y-22.799 Z111.032 A0. C0.
X16.834 Y-22.201 Z111.032 A0. C0.
X14.388 Y-20.583 Z111.032 A0. C0.
X10.727 Y-18.033 Z111.032 A0. C0.
X7.563 Y-15.741 Z111.032 A0. C0.
X4.239 Y-13.24 Z111.032 A0. C0.
X2.1 Y-11.562 Z111.032 A0. C0.
X-.619 Y-9.305 Z111.032 A0. C0.
X-2.142 Y-7.998 Z111.032 A0. C0.
X-3.679 Y-6.636 Z111.032 A0. C0.
X-5.189 Y-5.249 Z111.032 A0. C0.
X-6.668 Y-3.833 Z111.032 A0. C0.
X-8.237 Y-2.265 Z111.032 A0. C0.
X-9.62 Y-.821 Z111.032 A0. C0.
X-10.909 Y.588 Z111.032 A0. C0.
X-12.251 Y2.126 Z111.032 A0. C0.
X-13.591 Y3.742 Z111.032 A0. C0.
X-14.842 Y5.323 Z111.032 A0. C0.
X-16.096 Y6.985 Z111.032 A0. C0.
X-17.497 Y8.926 Z111.032 A0. C0.
X-18.934 Y10.998 Z111.032 A0. C0.
X-20.744 Y13.704 Z111.032 A0. C0.
X-22.989 Y17.176 Z111.032 A0. C0.
X-24.838 Y20.248 Z111.032 A0. C0.
X-24.942 Y20.591 Z111.032 A0. C0.
X-24.986 Y20.846 Z111.032 A0. C0.
X-24.994 Y21.109 Z111.032 A0. C0.
X-24.97 Y21.419 Z111.032 A0. C0.
X-24.91 Y21.686 Z111.032 A0. C0.
X-24.794 Y22.026 Z111.032 A0. C0.
X-24.502 Y22.506 Z111.032 A0. C0.
X-24.139 Y22.908 Z111.032 A0. C0.
X-23.741 Y23.179 Z111.032 A0. C0.
X-23.464 Y23.295 Z111.032 A0. C0.
X-22.892 Y23.435 Z111.032 A0. C0.
X-22.647 Y23.453 Z111.032 A0. C0.
X-22.153 Y23.409 Z111.032 A0. C0.
X-21.587 Y23.221 Z111.032 A0. C0.
X-20.77 Y22.397 Z111.032 A0. C0.
X-20.048 Y21.595 Z111.032 A0. C0.
X-19.124 Y20.49 Z111.032 A0. C0.
X-17.433 Y18.327 Z111.032 A0. C0.
X-14.101 Y13.906 Z111.032 A0. C0.
X-11.904 Y11.105 Z111.032 A0. C0.
X-11.574 Y10.648 Z111.032 A0. C0.
X-11.444 Y10.529 Z111.032 A0. C0.
X-8.691 Y7.178 Z111.032 A0. C0.
X-7.105 Y5.343 Z111.032 A0. C0.
X-5.844 Y3.936 Z111.032 A0. C0.
X-4.279 Y2.274 Z111.032 A0. C0.
X-3.245 Y1.217 Z111.032 A0. C0.
X-1.211 Y-.763 Z111.032 A0. C0.
X.293 Y-2.17 Z111.032 A0. C0.
X3.542 Y-5.067 Z111.032 A0. C0.
X6.892 Y-7.879 Z111.032 A0. C0.
X10.335 Y-10.61 Z111.032 A0. C0.
X17.327 Y-15.982 Z111.032 A0. C0.
X20.88 Y-18.619 Z111.032 A0. C0.
X21.731 Y-19.311 Z111.032 A0. C0.
X22.501 Y-20.072 Z111.032 A0. C0.
X22.914 Y-20.604 Z111.032 A0. C0.
X23.13 Y-20.953 Z111.032 A0. C0.
X23.475 Y-21.684 Z111.032 A0. C0.
X23.516 Y-21.871 Z111.032 A0. C0.
X23.568 Y-21.949 Z111.032 A0. C0.
X23.565 Y-22.181 Z111.032 A0. C0.
X23.497 Y-22.621 Z111.032 A0. C0.
X23.313 Y-23.082 Z111.032 A0. C0.
X23.123 Y-23.414 Z111.032 A0. C0.
X22.974 Y-23.609 Z111.032 A0. C0.
X22.541 Y-23.957 Z111.032 A0. C0.
X22.142 Y-24.192 Z111.032 A0. C0.
X21.781 Y-24.285 Z111.032 A0. C0.
X21.149 Y-24.318 Z111.032 A0. C0.
X20.882 Y-24.289 Z111.032 A0. C0.
X20.542 Y-24.216 Z111.032 A0. C0.
X19.761 Y-23.847 Z111.032 A0. C0.
X19.752 Y-23.843 Z111.032 A0. C0.
/M718 ;LASER OFF
G0 X-21.324 Y22.392
/M01
/M717 ;LASER ON
G1 X-21.334 Y22.392 Z111.032 A0. C0.
X-24.061 Y22.392 Z111.032 A0. C0.
X-24.071 Y22.392 Z111.032 A0. C0.
/M718 ;LASER OFF
G0 X-20.736 Y21.767
/M01
/M717 ;LASER ON
G1 X-20.746 Y21.767 Z111.032 A0. C0.
X-24.455 Y21.767 Z111.032 A0. C0.
X-24.465 Y21.767 Z111.032 A0. C0.
/M718 ;LASER OFF
G0 X-20.185 Y21.141
/M01
/M717 ;LASER ON
G1 X-20.195 Y21.141 Z111.032 A0. C0.
X-24.586 Y21.141 Z111.032 A0. C0.
X-24.596 Y21.141 Z111.032 A0. C0.
/M718 ;LASER OFF
G0 X-19.662 Y20.516
/M01
/M717 ;LASER ON
G1 X-19.672 Y20.516 Z111.032 A0. C0.
X-24.497 Y20.516 Z111.032 A0. C0.
X-24.507 Y20.516 Z111.032 A0. C0.
/M718 ;LASER OFF
G0 X-19.158 Y19.891
/M01
/M717 ;LASER ON
G1 X-19.168 Y19.891 Z111.032 A0. C0.
X-24.151 Y19.891 Z111.032 A0. C0.
X-24.161 Y19.891 Z111.032 A0. C0.
/M718 ;LASER OFF
G0 X-18.669 Y19.265
/M01
/M717 ;LASER ON
G1 X-18.679 Y19.265 Z111.032 A0. C0.
X-23.775 Y19.265 Z111.032 A0. C0.
X-23.785 Y19.265 Z111.032 A0. C0.
/M718 ;LASER OFF
G0 X-18.181 Y18.64
/M01
/M717 ;LASER ON
G1 X-18.191 Y18.64 Z111.032 A0. C0.
X-23.399 Y18.64 Z111.032 A0. C0.
X-23.409 Y18.64 Z111.032 A0. C0.
/M718 ;LASER OFF
G0 X-17.694 Y18.015
/M01
/M717 ;LASER ON
G1 X-17.704 Y18.015 Z111.032 A0. C0.
X-23.022 Y18.015 Z111.032 A0. C0.
X-23.032 Y18.015 Z111.032 A0. C0.
/M718 ;LASER OFF
G0 X-17.222 Y17.389
/M01
/M717 ;LASER ON
G1 X-17.232 Y17.389 Z111.032 A0. C0.
X-22.646 Y17.389 Z111.032 A0. C0.
X-22.656 Y17.389 Z111.032 A0. C0.
/M718 ;LASER OFF
G0 X-16.751 Y16.764
/M01
/M717 ;LASER ON
G1 X-16.761 Y16.764 Z111.032 A0. C0.
X-22.242 Y16.764 Z111.032 A0. C0.
X-22.252 Y16.764 Z111.032 A0. C0.
/M718 ;LASER OFF
G0 X-16.28 Y16.139
/M01
/M717 ;LASER ON
G1 X-16.29 Y16.139 Z111.032 A0. C0.
X-21.837 Y16.139 Z111.032 A0. C0.
X-21.847 Y16.139 Z111.032 A0. C0.
/M718 ;LASER OFF
G0 X-15.808 Y15.513
/M01
/M717 ;LASER ON
G1 X-15.818 Y15.513 Z111.032 A0. C0.
X-21.433 Y15.513 Z111.032 A0. C0.
X-21.443 Y15.513 Z111.032 A0. C0.
/M718 ;LASER OFF
G0 X-15.337 Y14.888
/M01
/M717 ;LASER ON
G1 X-15.347 Y14.888 Z111.032 A0. C0.
X-21.028 Y14.888 Z111.032 A0. C0.
X-21.038 Y14.888 Z111.032 A0. C0.
/M718 ;LASER OFF
G0 X-14.866 Y14.262
/M01
/M717 ;LASER ON
G1 X-14.876 Y14.262 Z111.032 A0. C0.
X-20.624 Y14.262 Z111.032 A0. C0.
X-20.634 Y14.262 Z111.032 A0. C0.
/M718 ;LASER OFF
G0 X-14.394 Y13.637
/M01
/M717 ;LASER ON
G1 X-14.404 Y13.637 Z111.032 A0. C0.
X-20.213 Y13.637 Z111.032 A0. C0.
X-20.223 Y13.637 Z111.032 A0. C0.
/M718 ;LASER OFF
G0 X-13.903 Y13.012
/M01
/M717 ;LASER ON
G1 X-13.913 Y13.012 Z111.032 A0. C0.
X-19.795 Y13.012 Z111.032 A0. C0.
X-19.805 Y13.012 Z111.032 A0. C0.
/M718 ;LASER OFF
G0 X-13.413 Y12.386
/M01
/M717 ;LASER ON
G1 X-13.423 Y12.386 Z111.032 A0. C0.
X-19.377 Y12.386 Z111.032 A0. C0.
X-19.387 Y12.386 Z111.032 A0. C0.
/M718 ;LASER OFF
G0 X-12.922 Y11.761
/M01
/M717 ;LASER ON
G1 X-12.932 Y11.761 Z111.032 A0. C0.
X-18.958 Y11.761 Z111.032 A0. C0.
X-18.968 Y11.761 Z111.032 A0. C0.
/M718 ;LASER OFF
G0 X-12.432 Y11.136
/M01
/M717 ;LASER ON
G1 X-12.442 Y11.136 Z111.032 A0. C0.
X-18.538 Y11.136 Z111.032 A0. C0.
X-18.548 Y11.136 Z111.032 A0. C0.
/M718 ;LASER OFF
G0 X-11.963 Y10.51
/M01
/M717 ;LASER ON
G1 X-11.973 Y10.51 Z111.032 A0. C0.
X-18.104 Y10.51 Z111.032 A0. C0.
X-18.114 Y10.51 Z111.032 A0. C0.
/M718 ;LASER OFF
G0 X-11.428 Y9.885
/M01
/M717 ;LASER ON
G1 X-11.438 Y9.885 Z111.032 A0. C0.
X-17.67 Y9.885 Z111.032 A0. C0.
X-17.68 Y9.885 Z111.032 A0. C0.
/M718 ;LASER OFF
G0 X-10.914 Y9.26
/M01
/M717 ;LASER ON
G1 X-10.924 Y9.26 Z111.032 A0. C0.
X-17.237 Y9.26 Z111.032 A0. C0.
X-17.247 Y9.26 Z111.032 A0. C0.
/M718 ;LASER OFF
G0 X-10.4 Y8.634
/M01
/M717 ;LASER ON
G1 X-10.41 Y8.634 Z111.032 A0. C0.
X-16.788 Y8.634 Z111.032 A0. C0.
X-16.798 Y8.634 Z111.032 A0. C0.
/M718 ;LASER OFF
G0 X-9.886 Y8.009
/M01
/M717 ;LASER ON
G1 X-9.896 Y8.009 Z111.032 A0. C0.
X-16.337 Y8.009 Z111.032 A0. C0.
X-16.347 Y8.009 Z111.032 A0. C0.
/M718 ;LASER OFF
G0 X-9.372 Y7.384
/M01
/M717 ;LASER ON
G1 X-9.382 Y7.384 Z111.032 A0. C0.
X-15.886 Y7.384 Z111.032 A0. C0.
X-15.896 Y7.384 Z111.032 A0. C0.
/M718 ;LASER OFF
G0 X-8.852 Y6.758
/M01
/M717 ;LASER ON
G1 X-8.862 Y6.758 Z111.032 A0. C0.
X-15.419 Y6.758 Z111.032 A0. C0.
X-15.429 Y6.758 Z111.032 A0. C0.
/M718 ;LASER OFF
G0 X-8.312 Y6.133
/M01
/M717 ;LASER ON
G1 X-8.322 Y6.133 Z111.032 A0. C0.
X-14.947 Y6.133 Z111.032 A0. C0.
X-14.957 Y6.133 Z111.032 A0. C0.
/M718 ;LASER OFF
G0 X-7.772 Y5.508
/M01
/M717 ;LASER ON
G1 X-7.782 Y5.508 Z111.032 A0. C0.
X-14.473 Y5.508 Z111.032 A0. C0.
X-14.483 Y5.508 Z111.032 A0. C0.
/M718 ;LASER OFF
G0 X-7.225 Y4.882
/M01
/M717 ;LASER ON
G1 X-7.235 Y4.882 Z111.032 A0. C0.
X-13.978 Y4.882 Z111.032 A0. C0.
X-13.988 Y4.882 Z111.032 A0. C0.
/M718 ;LASER OFF
G0 X-6.665 Y4.257
/M01
/M717 ;LASER ON
G1 X-6.675 Y4.257 Z111.032 A0. C0.
X-13.483 Y4.257 Z111.032 A0. C0.
X-13.493 Y4.257 Z111.032 A0. C0.
/M718 ;LASER OFF
G0 X-6.102 Y3.632
/M01
/M717 ;LASER ON
G1 X-6.112 Y3.632 Z111.032 A0. C0.
X-12.975 Y3.632 Z111.032 A0. C0.
X-12.985 Y3.632 Z111.032 A0. C0.
/M718 ;LASER OFF
G0 X-5.514 Y3.006
/M01
/M717 ;LASER ON
G1 X-5.524 Y3.006 Z111.032 A0. C0.
X-12.456 Y3.006 Z111.032 A0. C0.
X-12.466 Y3.006 Z111.032 A0. C0.
/M718 ;LASER OFF
G0 X-4.925 Y2.381
/M01
/M717 ;LASER ON
G1 X-4.935 Y2.381 Z111.032 A0. C0.
X-11.938 Y2.381 Z111.032 A0. C0.
X-11.948 Y2.381 Z111.032 A0. C0.
/M718 ;LASER OFF
G0 X-4.327 Y1.756
/M01
/M717 ;LASER ON
G1 X-4.337 Y1.756 Z111.032 A0. C0.
X-11.392 Y1.756 Z111.032 A0. C0.
X-11.402 Y1.756 Z111.032 A0. C0.
/M718 ;LASER OFF
G0 X-3.715 Y1.13
/M01
/M717 ;LASER ON
G1 X-3.725 Y1.13 Z111.032 A0. C0.
X-10.846 Y1.13 Z111.032 A0. C0.
X-10.856 Y1.13 Z111.032 A0. C0.
/M718 ;LASER OFF
G0 X-3.083 Y.505
/M01
/M717 ;LASER ON
G1 X-3.093 Y.505 Z111.032 A0. C0.
X-10.285 Y.505 Z111.032 A0. C0.
X-10.295 Y.505 Z111.032 A0. C0.
/M718 ;LASER OFF
G0 X-2.44 Y-.12
/M01
/M717 ;LASER ON
G1 X-2.45 Y-.12 Z111.032 A0. C0.
X-9.713 Y-.12 Z111.032 A0. C0.
X-9.723 Y-.12 Z111.032 A0. C0.
/M718 ;LASER OFF
G0 X-1.798 Y-.746
/M01
/M717 ;LASER ON
G1 X-1.808 Y-.746 Z111.032 A0. C0.
X-9.132 Y-.746 Z111.032 A0. C0.
X-9.142 Y-.746 Z111.032 A0. C0.
/M718 ;LASER OFF
G0 X-1.142 Y-1.371
/M01
/M717 ;LASER ON
G1 X-1.152 Y-1.371 Z111.032 A0. C0.
X-8.533 Y-1.371 Z111.032 A0. C0.
X-8.543 Y-1.371 Z111.032 A0. C0.
/M718 ;LASER OFF
G0 X-.474 Y-1.996
/M01
/M717 ;LASER ON
G1 X-.484 Y-1.996 Z111.032 A0. C0.
X-7.934 Y-1.996 Z111.032 A0. C0.
X-7.944 Y-1.996 Z111.032 A0. C0.
/M718 ;LASER OFF
G0 X.203 Y-2.622
/M01
/M717 ;LASER ON
G1 X.193 Y-2.622 Z111.032 A0. C0.
X-7.309 Y-2.622 Z111.032 A0. C0.
X-7.319 Y-2.622 Z111.032 A0. C0.
/M718 ;LASER OFF
G0 X.904 Y-3.247
/M01
/M717 ;LASER ON
G1 X.894 Y-3.247 Z111.032 A0. C0.
X-6.683 Y-3.247 Z111.032 A0. C0.
X-6.693 Y-3.247 Z111.032 A0. C0.
/M718 ;LASER OFF
G0 X1.605 Y-3.872
/M01
/M717 ;LASER ON
G1 X1.595 Y-3.872 Z111.032 A0. C0.
X-6.043 Y-3.872 Z111.032 A0. C0.
X-6.053 Y-3.872 Z111.032 A0. C0.
/M718 ;LASER OFF
G0 X2.306 Y-4.498
/M01
/M717 ;LASER ON
G1 X2.296 Y-4.498 Z111.032 A0. C0.
X-5.39 Y-4.498 Z111.032 A0. C0.
X-5.4 Y-4.498 Z111.032 A0. C0.
/M718 ;LASER OFF
G0 X3.007 Y-5.123
/M01
/M717 ;LASER ON
G1 X2.997 Y-5.123 Z111.032 A0. C0.
X-4.729 Y-5.123 Z111.032 A0. C0.
X-4.739 Y-5.123 Z111.032 A0. C0.
/M718 ;LASER OFF
G0 X3.735 Y-5.749
/M01
/M717 ;LASER ON
G1 X3.725 Y-5.749 Z111.032 A0. C0.
X-4.048 Y-5.749 Z111.032 A0. C0.
X-4.058 Y-5.749 Z111.032 A0. C0.
/M718 ;LASER OFF
G0 X4.48 Y-6.374
/M01
/M717 ;LASER ON
G1 X4.47 Y-6.374 Z111.032 A0. C0.
X-3.366 Y-6.374 Z111.032 A0. C0.
X-3.376 Y-6.374 Z111.032 A0. C0.
/M718 ;LASER OFF
G0 X5.225 Y-6.999
/M01
/M717 ;LASER ON
G1 X5.215 Y-6.999 Z111.032 A0. C0.
X-2.66 Y-6.999 Z111.032 A0. C0.
X-2.67 Y-6.999 Z111.032 A0. C0.
/M718 ;LASER OFF
G0 X5.97 Y-7.625
/M01
/M717 ;LASER ON
G1 X5.96 Y-7.625 Z111.032 A0. C0.
X-1.954 Y-7.625 Z111.032 A0. C0.
X-1.964 Y-7.625 Z111.032 A0. C0.
/M718 ;LASER OFF
G0 X6.719 Y-8.25
/M01
/M717 ;LASER ON
G1 X6.709 Y-8.25 Z111.032 A0. C0.
X-1.228 Y-8.25 Z111.032 A0. C0.
X-1.238 Y-8.25 Z111.032 A0. C0.
/M718 ;LASER OFF
G0 X7.508 Y-8.875
/M01
/M717 ;LASER ON
G1 X7.498 Y-8.875 Z111.032 A0. C0.
X-.499 Y-8.875 Z111.032 A0. C0.
X-.509 Y-8.875 Z111.032 A0. C0.
/M718 ;LASER OFF
G0 X8.296 Y-9.501
/M01
/M717 ;LASER ON
G1 X8.286 Y-9.501 Z111.032 A0. C0.
X.249 Y-9.501 Z111.032 A0. C0.
X.239 Y-9.501 Z111.032 A0. C0.
/M718 ;LASER OFF
G0 X9.084 Y-10.126
/M01
/M717 ;LASER ON
G1 X9.074 Y-10.126 Z111.032 A0. C0.
X1.003 Y-10.126 Z111.032 A0. C0.
X.993 Y-10.126 Z111.032 A0. C0.
/M718 ;LASER OFF
G0 X9.873 Y-10.751
/M01
/M717 ;LASER ON
G1 X9.863 Y-10.751 Z111.032 A0. C0.
X1.756 Y-10.751 Z111.032 A0. C0.
X1.746 Y-10.751 Z111.032 A0. C0.
/M718 ;LASER OFF
G0 X10.679 Y-11.377
/M01
/M717 ;LASER ON
G1 X10.669 Y-11.377 Z111.032 A0. C0.
X2.518 Y-11.377 Z111.032 A0. C0.
X2.508 Y-11.377 Z111.032 A0. C0.
/M718 ;LASER OFF
G0 X11.493 Y-12.002
/M01
/M717 ;LASER ON
G1 X11.483 Y-12.002 Z111.032 A0. C0.
X3.315 Y-12.002 Z111.032 A0. C0.
X3.305 Y-12.002 Z111.032 A0. C0.
/M718 ;LASER OFF
G0 X12.307 Y-12.627
/M01
/M717 ;LASER ON
G1 X12.297 Y-12.627 Z111.032 A0. C0.
X4.113 Y-12.627 Z111.032 A0. C0.
X4.103 Y-12.627 Z111.032 A0. C0.
/M718 ;LASER OFF
G0 X13.121 Y-13.253
/M01
/M717 ;LASER ON
G1 X13.111 Y-13.253 Z111.032 A0. C0.
X4.928 Y-13.253 Z111.032 A0. C0.
X4.918 Y-13.253 Z111.032 A0. C0.
/M718 ;LASER OFF
G0 X13.935 Y-13.878
/M01
/M717 ;LASER ON
G1 X13.925 Y-13.878 Z111.032 A0. C0.
X5.759 Y-13.878 Z111.032 A0. C0.
X5.749 Y-13.878 Z111.032 A0. C0.
/M718 ;LASER OFF
G0 X14.749 Y-14.503
/M01
/M717 ;LASER ON
G1 X14.739 Y-14.503 Z111.032 A0. C0.
X6.59 Y-14.503 Z111.032 A0. C0.
X6.58 Y-14.503 Z111.032 A0. C0.
/M718 ;LASER OFF
G0 X15.563 Y-15.129
/M01
/M717 ;LASER ON
G1 X15.553 Y-15.129 Z111.032 A0. C0.
X7.422 Y-15.129 Z111.032 A0. C0.
X7.412 Y-15.129 Z111.032 A0. C0.
/M718 ;LASER OFF
G0 X16.377 Y-15.754
/M01
/M717 ;LASER ON
G1 X16.367 Y-15.754 Z111.032 A0. C0.
X8.27 Y-15.754 Z111.032 A0. C0.
X8.26 Y-15.754 Z111.032 A0. C0.
/M718 ;LASER OFF
G0 X17.195 Y-16.379
/M01
/M717 ;LASER ON
G1 X17.185 Y-16.379 Z111.032 A0. C0.
X9.133 Y-16.379 Z111.032 A0. C0.
X9.123 Y-16.379 Z111.032 A0. C0.
/M718 ;LASER OFF
G0 X18.037 Y-17.005
/M01
/M717 ;LASER ON
G1 X18.027 Y-17.005 Z111.032 A0. C0.
X9.996 Y-17.005 Z111.032 A0. C0.
X9.986 Y-17.005 Z111.032 A0. C0.
/M718 ;LASER OFF
G0 X18.88 Y-17.63
/M01
/M717 ;LASER ON
G1 X18.87 Y-17.63 Z111.032 A0. C0.
X10.86 Y-17.63 Z111.032 A0. C0.
X10.85 Y-17.63 Z111.032 A0. C0.
/M718 ;LASER OFF
G0 X19.722 Y-18.255
/M01
/M717 ;LASER ON
G1 X19.712 Y-18.255 Z111.032 A0. C0.
X11.753 Y-18.255 Z111.032 A0. C0.
X11.743 Y-18.255 Z111.032 A0. C0.
/M718 ;LASER OFF
G0 X20.565 Y-18.881
/M01
/M717 ;LASER ON
G1 X20.555 Y-18.881 Z111.032 A0. C0.
X12.651 Y-18.881 Z111.032 A0. C0.
X12.641 Y-18.881 Z111.032 A0. C0.
/M718 ;LASER OFF
G0 X21.341 Y-19.506
/M01
/M717 ;LASER ON
G1 X21.331 Y-19.506 Z111.032 A0. C0.
X13.549 Y-19.506 Z111.032 A0. C0.
X13.539 Y-19.506 Z111.032 A0. C0.
/M718 ;LASER OFF
G0 X21.996 Y-20.131
/M01
/M717 ;LASER ON
G1 X21.986 Y-20.131 Z111.032 A0. C0.
X14.447 Y-20.131 Z111.032 A0. C0.
X14.437 Y-20.131 Z111.032 A0. C0.
/M718 ;LASER OFF
G0 X22.532 Y-20.757
/M01
/M717 ;LASER ON
G1 X22.522 Y-20.757 Z111.032 A0. C0.
X15.383 Y-20.757 Z111.032 A0. C0.
X15.373 Y-20.757 Z111.032 A0. C0.
/M718 ;LASER OFF
G0 X22.896 Y-21.382
/M01
/M717 ;LASER ON
G1 X22.886 Y-21.382 Z111.032 A0. C0.
X16.328 Y-21.382 Z111.032 A0. C0.
X16.318 Y-21.382 Z111.032 A0. C0.
/M718 ;LASER OFF
G0 X23.142 Y-22.007
/M01
/M717 ;LASER ON
G1 X23.132 Y-22.007 Z111.032 A0. C0.
X17.29 Y-22.007 Z111.032 A0. C0.
X17.28 Y-22.007 Z111.032 A0. C0.
/M718 ;LASER OFF
G0 X23.067 Y-22.633
/M01
/M717 ;LASER ON
G1 X23.057 Y-22.633 Z111.032 A0. C0.
X18.328 Y-22.633 Z111.032 A0. C0.
X18.318 Y-22.633 Z111.032 A0. C0.
/M718 ;LASER OFF
G0 X22.744 Y-23.258
/M01
/M717 ;LASER ON
G1 X22.734 Y-23.258 Z111.032 A0. C0.
X19.482 Y-23.258 Z111.032 A0. C0.
X19.472 Y-23.258 Z111.032 A0. C0.
/M718 ;LASER OFF
/M722
/G4 F170
/M721
/G4 F10
CYCLE832()
G64
TRAFOOF
G54
CYCLE832(.025,_FINISH,1)
TRAORI(2)
G54
G0 X19.472 Y-23.258 Z111.182 A0. C0.
X18.533 Y-23.196
/M01
/M717 ;LASER ON
G1 X18.525 Y-23.19 Z111.182 A0. C0.
X16.959 Y-22.26 Z111.182 A0. C0.
X14.379 Y-20.557 Z111.182 A0. C0.
X10.767 Y-18.043 Z111.182 A0. C0.
X7.55 Y-15.718 Z111.182 A0. C0.
X5.878 Y-14.477 Z111.182 A0. C0.
X2.592 Y-11.942 Z111.182 A0. C0.
X-.597 Y-9.32 Z111.182 A0. C0.
X-2.161 Y-7.982 Z111.182 A0. C0.
X-5.211 Y-5.234 Z111.182 A0. C0.
X-6.691 Y-3.821 Z111.182 A0. C0.
X-8.233 Y-2.281 Z111.182 A0. C0.
X-9.787 Y-.658 Z111.182 A0. C0.
X-10.936 Y.597 Z111.182 A0. C0.
X-12.279 Y2.134 Z111.182 A0. C0.
X-13.613 Y3.74 Z111.182 A0. C0.
X-14.866 Y5.321 Z111.182 A0. C0.
X-16.18 Y7.06 Z111.182 A0. C0.
X-17.651 Y9.101 Z111.182 A0. C0.
X-19.088 Y11.173 Z111.182 A0. C0.
X-20.783 Y13.703 Z111.182 A0. C0.
X-23.03 Y17.173 Z111.182 A0. C0.
X-24.878 Y20.238 Z111.182 A0. C0.
X-24.98 Y20.574 Z111.182 A0. C0.
X-25.024 Y20.831 Z111.182 A0. C0.
X-25.032 Y21.095 Z111.182 A0. C0.
X-25.007 Y21.398 Z111.182 A0. C0.
X-24.948 Y21.666 Z111.182 A0. C0.
X-24.833 Y22.003 Z111.182 A0. C0.
X-24.545 Y22.48 Z111.182 A0. C0.
X-24.369 Y22.7 Z111.182 A0. C0.
X-24.183 Y22.885 Z111.182 A0. C0.
X-23.786 Y23.157 Z111.182 A0. C0.
X-23.361 Y23.326 Z111.182 A0. C0.
X-22.933 Y23.416 Z111.182 A0. C0.
X-22.447 Y23.427 Z111.182 A0. C0.
X-22.025 Y23.351 Z111.182 A0. C0.
X-21.625 Y23.198 Z111.182 A0. C0.
X-20.864 Y22.435 Z111.182 A0. C0.
X-20.138 Y21.636 Z111.182 A0. C0.
X-19.217 Y20.549 Z111.182 A0. C0.
X-17.364 Y18.177 Z111.182 A0. C0.
X-14.179 Y13.958 Z111.182 A0. C0.
X-11.895 Y11.049 Z111.182 A0. C0.
X-11.605 Y10.65 Z111.182 A0. C0.
X-11.491 Y10.544 Z111.182 A0. C0.
X-8.765 Y7.233 Z111.182 A0. C0.
X-7.24 Y5.469 Z111.182 A0. C0.
X-5.917 Y3.992 Z111.182 A0. C0.
X-4.386 Y2.367 Z111.182 A0. C0.
X-3.272 Y1.228 Z111.182 A0. C0.
X-1.323 Y-.668 Z111.182 A0. C0.
X.221 Y-2.113 Z111.182 A0. C0.
X3.472 Y-5.009 Z111.182 A0. C0.
X6.824 Y-7.819 Z111.182 A0. C0.
X10.269 Y-10.549 Z111.182 A0. C0.
X17.266 Y-15.917 Z111.182 A0. C0.
X20.913 Y-18.62 Z111.182 A0. C0.
X21.727 Y-19.28 Z111.182 A0. C0.
X22.492 Y-20.031 Z111.182 A0. C0.
X22.798 Y-20.409 Z111.182 A0. C0.
X23.135 Y-20.925 Z111.182 A0. C0.
X23.524 Y-21.741 Z111.182 A0. C0.
X23.566 Y-21.913 Z111.182 A0. C0.
X23.58 Y-22.168 Z111.182 A0. C0.
X23.511 Y-22.608 Z111.182 A0. C0.
X23.386 Y-22.941 Z111.182 A0. C0.
X23.138 Y-23.402 Z111.182 A0. C0.
X22.987 Y-23.598 Z111.182 A0. C0.
X22.554 Y-23.944 Z111.182 A0. C0.
X22.155 Y-24.177 Z111.182 A0. C0.
X21.923 Y-24.24 Z111.182 A0. C0.
X21.431 Y-24.3 Z111.182 A0. C0.
X21.162 Y-24.304 Z111.182 A0. C0.
X20.895 Y-24.276 Z111.182 A0. C0.
X20.545 Y-24.2 Z111.182 A0. C0.
X19.784 Y-23.855 Z111.182 A0. C0.
X18.873 Y-23.387 Z111.182 A0. C0.
X18.864 Y-23.383 Z111.182 A0. C0.
/M718 ;LASER OFF
G0 X-23.969 Y22.538
/M01
/M717 ;LASER ON
G1 X-23.969 Y22.528 Z111.182 A0. C0.
X-23.969 Y19.513 Z111.182 A0. C0.
X-23.969 Y19.503 Z111.182 A0. C0.
/M718 ;LASER OFF
G0 X-23.341 Y22.91
/M01
/M717 ;LASER ON
G1 X-23.341 Y22.9 Z111.182 A0. C0.
X-23.341 Y18.471 Z111.182 A0. C0.
X-23.341 Y18.461 Z111.182 A0. C0.
/M718 ;LASER OFF
G0 X-22.713 Y23.027
/M01
/M717 ;LASER ON
G1 X-22.713 Y23.017 Z111.182 A0. C0.
X-22.713 Y17.43 Z111.182 A0. C0.
X-22.713 Y17.42 Z111.182 A0. C0.
/M718 ;LASER OFF
G0 X-22.084 Y22.951
/M01
/M717 ;LASER ON
G1 X-22.084 Y22.941 Z111.182 A0. C0.
X-22.084 Y16.457 Z111.182 A0. C0.
X-22.084 Y16.447 Z111.182 A0. C0.
/M718 ;LASER OFF
G0 X-21.456 Y22.467
/M01
/M717 ;LASER ON
G1 X-21.456 Y22.457 Z111.182 A0. C0.
X-21.456 Y15.487 Z111.182 A0. C0.
X-21.456 Y15.477 Z111.182 A0. C0.
/M718 ;LASER OFF
G0 X-20.828 Y21.804
/M01
/M717 ;LASER ON
G1 X-20.828 Y21.794 Z111.182 A0. C0.
X-20.828 Y14.517 Z111.182 A0. C0.
X-20.828 Y14.507 Z111.182 A0. C0.
/M718 ;LASER OFF
G0 X-20.2 Y21.094
/M01
/M717 ;LASER ON
G1 X-20.2 Y21.084 Z111.182 A0. C0.
X-20.2 Y13.559 Z111.182 A0. C0.
X-20.2 Y13.549 Z111.182 A0. C0.
/M718 ;LASER OFF
G0 X-19.572 Y20.353
/M01
/M717 ;LASER ON
G1 X-19.572 Y20.343 Z111.182 A0. C0.
X-19.572 Y12.622 Z111.182 A0. C0.
X-19.572 Y12.612 Z111.182 A0. C0.
/M718 ;LASER OFF
G0 X-18.944 Y19.553
/M01
/M717 ;LASER ON
G1 X-18.944 Y19.543 Z111.182 A0. C0.
X-18.944 Y11.684 Z111.182 A0. C0.
X-18.944 Y11.674 Z111.182 A0. C0.
/M718 ;LASER OFF
G0 X-18.315 Y18.748
/M01
/M717 ;LASER ON
G1 X-18.315 Y18.738 Z111.182 A0. C0.
X-18.315 Y10.768 Z111.182 A0. C0.
X-18.315 Y10.758 Z111.182 A0. C0.
/M718 ;LASER OFF
G0 X-17.687 Y17.944
/M01
/M717 ;LASER ON
G1 X-17.687 Y17.934 Z111.182 A0. C0.
X-17.687 Y9.862 Z111.182 A0. C0.
X-17.687 Y9.852 Z111.182 A0. C0.
/M718 ;LASER OFF
G0 X-17.059 Y17.112
/M01
/M717 ;LASER ON
G1 X-17.059 Y17.102 Z111.182 A0. C0.
X-17.059 Y8.97 Z111.182 A0. C0.
X-17.059 Y8.96 Z111.182 A0. C0.
/M718 ;LASER OFF
G0 X-16.431 Y16.28
/M01
/M717 ;LASER ON
G1 X-16.431 Y16.27 Z111.182 A0. C0.
X-16.431 Y8.099 Z111.182 A0. C0.
X-16.431 Y8.089 Z111.182 A0. C0.
/M718 ;LASER OFF
G0 X-15.803 Y15.448
/M01
/M717 ;LASER ON
G1 X-15.803 Y15.438 Z111.182 A0. C0.
X-15.803 Y7.23 Z111.182 A0. C0.
X-15.803 Y7.22 Z111.182 A0. C0.
/M718 ;LASER OFF
G0 X-15.174 Y14.616
/M01
/M717 ;LASER ON
G1 X-15.174 Y14.606 Z111.182 A0. C0.
X-15.174 Y6.399 Z111.182 A0. C0.
X-15.174 Y6.389 Z111.182 A0. C0.
/M718 ;LASER OFF
G0 X-14.546 Y13.784
/M01
/M717 ;LASER ON
G1 X-14.546 Y13.774 Z111.182 A0. C0.
X-14.546 Y5.567 Z111.182 A0. C0.
X-14.546 Y5.557 Z111.182 A0. C0.
/M718 ;LASER OFF
G0 X-13.918 Y12.981
/M01
/M717 ;LASER ON
G1 X-13.918 Y12.971 Z111.182 A0. C0.
X-13.918 Y4.775 Z111.182 A0. C0.
X-13.918 Y4.765 Z111.182 A0. C0.
/M718 ;LASER OFF
G0 X-13.29 Y12.181
/M01
/M717 ;LASER ON
G1 X-13.29 Y12.171 Z111.182 A0. C0.
X-13.29 Y3.983 Z111.182 A0. C0.
X-13.29 Y3.973 Z111.182 A0. C0.
/M718 ;LASER OFF
G0 X-12.662 Y11.382
/M01
/M717 ;LASER ON
G1 X-12.662 Y11.372 Z111.182 A0. C0.
X-12.662 Y3.227 Z111.182 A0. C0.
X-12.662 Y3.217 Z111.182 A0. C0.
/M718 ;LASER OFF
G0 X-12.034 Y10.562
/M01
/M717 ;LASER ON
G1 X-12.034 Y10.552 Z111.182 A0. C0.
X-12.034 Y2.471 Z111.182 A0. C0.
X-12.034 Y2.461 Z111.182 A0. C0.
/M718 ;LASER OFF
G0 X-11.405 Y9.815
/M01
/M717 ;LASER ON
G1 X-11.405 Y9.805 Z111.182 A0. C0.
X-11.405 Y1.748 Z111.182 A0. C0.
X-11.405 Y1.738 Z111.182 A0. C0.
/M718 ;LASER OFF
G0 X-10.777 Y9.052
/M01
/M717 ;LASER ON
G1 X-10.777 Y9.042 Z111.182 A0. C0.
X-10.777 Y1.03 Z111.182 A0. C0.
X-10.777 Y1.02 Z111.182 A0. C0.
/M718 ;LASER OFF
G0 X-10.149 Y8.288
/M01
/M717 ;LASER ON
G1 X-10.149 Y8.278 Z111.182 A0. C0.
X-10.149 Y.336 Z111.182 A0. C0.
X-10.149 Y.326 Z111.182 A0. C0.
/M718 ;LASER OFF
G0 X-9.521 Y7.525
/M01
/M717 ;LASER ON
G1 X-9.521 Y7.515 Z111.182 A0. C0.
X-9.521 Y-.35 Z111.182 A0. C0.
X-9.521 Y-.36 Z111.182 A0. C0.
/M718 ;LASER OFF
G0 X-8.893 Y6.772
/M01
/M717 ;LASER ON
G1 X-8.893 Y6.762 Z111.182 A0. C0.
X-8.893 Y-1.008 Z111.182 A0. C0.
X-8.893 Y-1.018 Z111.182 A0. C0.
/M718 ;LASER OFF
G0 X-8.265 Y6.046
/M01
/M717 ;LASER ON
G1 X-8.265 Y6.036 Z111.182 A0. C0.
X-8.265 Y-1.664 Z111.182 A0. C0.
X-8.265 Y-1.674 Z111.182 A0. C0.
/M718 ;LASER OFF
G0 X-7.636 Y5.319
/M01
/M717 ;LASER ON
G1 X-7.636 Y5.309 Z111.182 A0. C0.
X-7.636 Y-2.306 Z111.182 A0. C0.
X-7.636 Y-2.316 Z111.182 A0. C0.
/M718 ;LASER OFF
G0 X-7.008 Y4.614
/M01
/M717 ;LASER ON
G1 X-7.008 Y4.604 Z111.182 A0. C0.
X-7.008 Y-2.933 Z111.182 A0. C0.
X-7.008 Y-2.943 Z111.182 A0. C0.
/M718 ;LASER OFF
G0 X-6.38 Y3.913
/M01
/M717 ;LASER ON
G1 X-6.38 Y3.903 Z111.182 A0. C0.
X-6.38 Y-3.559 Z111.182 A0. C0.
X-6.38 Y-3.569 Z111.182 A0. C0.
/M718 ;LASER OFF
G0 X-5.752 Y3.238
/M01
/M717 ;LASER ON
G1 X-5.752 Y3.228 Z111.182 A0. C0.
X-5.752 Y-4.159 Z111.182 A0. C0.
X-5.752 Y-4.169 Z111.182 A0. C0.
/M718 ;LASER OFF
G0 X-5.124 Y2.571
/M01
/M717 ;LASER ON
G1 X-5.124 Y2.561 Z111.182 A0. C0.
X-5.124 Y-4.759 Z111.182 A0. C0.
X-5.124 Y-4.769 Z111.182 A0. C0.
/M718 ;LASER OFF
G0 X-4.495 Y1.911
/M01
/M717 ;LASER ON
G1 X-4.495 Y1.901 Z111.182 A0. C0.
X-4.495 Y-5.335 Z111.182 A0. C0.
X-4.495 Y-5.345 Z111.182 A0. C0.
/M718 ;LASER OFF
G0 X-3.867 Y1.269
/M01
/M717 ;LASER ON
G1 X-3.867 Y1.259 Z111.182 A0. C0.
X-3.867 Y-5.901 Z111.182 A0. C0.
X-3.867 Y-5.911 Z111.182 A0. C0.
/M718 ;LASER OFF
G0 X-3.239 Y.643
/M01
/M717 ;LASER ON
G1 X-3.239 Y.633 Z111.182 A0. C0.
X-3.239 Y-6.467 Z111.182 A0. C0.
X-3.239 Y-6.477 Z111.182 A0. C0.
/M718 ;LASER OFF
G0 X-2.611 Y.032
/M01
/M717 ;LASER ON
G1 X-2.611 Y.022 Z111.182 A0. C0.
X-2.611 Y-7.033 Z111.182 A0. C0.
X-2.611 Y-7.043 Z111.182 A0. C0.
/M718 ;LASER OFF
G0 X-1.983 Y-.579
/M01
/M717 ;LASER ON
G1 X-1.983 Y-.589 Z111.182 A0. C0.
X-1.983 Y-7.599 Z111.182 A0. C0.
X-1.983 Y-7.609 Z111.182 A0. C0.
/M718 ;LASER OFF
G0 X-1.355 Y-1.181
/M01
/M717 ;LASER ON
G1 X-1.355 Y-1.191 Z111.182 A0. C0.
X-1.355 Y-8.14 Z111.182 A0. C0.
X-1.355 Y-8.15 Z111.182 A0. C0.
/M718 ;LASER OFF
G0 X-.726 Y-1.769
/M01
/M717 ;LASER ON
G1 X-.726 Y-1.779 Z111.182 A0. C0.
X-.726 Y-8.678 Z111.182 A0. C0.
X-.726 Y-8.688 Z111.182 A0. C0.
/M718 ;LASER OFF
G0 X-.098 Y-2.357
/M01
/M717 ;LASER ON
G1 X-.098 Y-2.367 Z111.182 A0. C0.
X-.098 Y-9.207 Z111.182 A0. C0.
X-.098 Y-9.217 Z111.182 A0. C0.
/M718 ;LASER OFF
G0 X.53 Y-2.919
/M01
/M717 ;LASER ON
G1 X.53 Y-2.929 Z111.182 A0. C0.
X.53 Y-9.724 Z111.182 A0. C0.
X.53 Y-9.734 Z111.182 A0. C0.
/M718 ;LASER OFF
G0 X1.158 Y-3.478
/M01
/M717 ;LASER ON
G1 X1.158 Y-3.488 Z111.182 A0. C0.
X1.158 Y-10.24 Z111.182 A0. C0.
X1.158 Y-10.25 Z111.182 A0. C0.
/M718 ;LASER OFF
G0 X1.786 Y-4.038
/M01
/M717 ;LASER ON
G1 X1.786 Y-4.048 Z111.182 A0. C0.
X1.786 Y-10.757 Z111.182 A0. C0.
X1.786 Y-10.767 Z111.182 A0. C0.
/M718 ;LASER OFF
G0 X2.414 Y-4.598
/M01
/M717 ;LASER ON
G1 X2.414 Y-4.608 Z111.182 A0. C0.
X2.414 Y-11.274 Z111.182 A0. C0.
X2.414 Y-11.284 Z111.182 A0. C0.
/M718 ;LASER OFF
G0 X3.043 Y-5.157
/M01
/M717 ;LASER ON
G1 X3.043 Y-5.167 Z111.182 A0. C0.
X3.043 Y-11.78 Z111.182 A0. C0.
X3.043 Y-11.79 Z111.182 A0. C0.
/M718 ;LASER OFF
G0 X3.671 Y-5.693
/M01
/M717 ;LASER ON
G1 X3.671 Y-5.703 Z111.182 A0. C0.
X3.671 Y-12.264 Z111.182 A0. C0.
X3.671 Y-12.274 Z111.182 A0. C0.
/M718 ;LASER OFF
G0 X4.299 Y-6.219
/M01
/M717 ;LASER ON
G1 X4.299 Y-6.229 Z111.182 A0. C0.
X4.299 Y-12.749 Z111.182 A0. C0.
X4.299 Y-12.759 Z111.182 A0. C0.
/M718 ;LASER OFF
G0 X4.927 Y-6.746
/M01
/M717 ;LASER ON
G1 X4.927 Y-6.756 Z111.182 A0. C0.
X4.927 Y-13.233 Z111.182 A0. C0.
X4.927 Y-13.243 Z111.182 A0. C0.
/M718 ;LASER OFF
G0 X5.555 Y-7.272
/M01
/M717 ;LASER ON
G1 X5.555 Y-7.282 Z111.182 A0. C0.
X5.555 Y-13.718 Z111.182 A0. C0.
X5.555 Y-13.728 Z111.182 A0. C0.
/M718 ;LASER OFF
G0 X6.183 Y-7.799
/M01
/M717 ;LASER ON
G1 X6.183 Y-7.809 Z111.182 A0. C0.
X6.183 Y-14.2 Z111.182 A0. C0.
X6.183 Y-14.21 Z111.182 A0. C0.
/M718 ;LASER OFF
G0 X6.812 Y-8.314
/M01
/M717 ;LASER ON
G1 X6.812 Y-8.324 Z111.182 A0. C0.
X6.812 Y-14.666 Z111.182 A0. C0.
X6.812 Y-14.676 Z111.182 A0. C0.
/M718 ;LASER OFF
G0 X7.44 Y-8.812
/M01
/M717 ;LASER ON
G1 X7.44 Y-8.822 Z111.182 A0. C0.
X7.44 Y-15.133 Z111.182 A0. C0.
X7.44 Y-15.143 Z111.182 A0. C0.
/M718 ;LASER OFF
G0 X8.068 Y-9.31
/M01
/M717 ;LASER ON
G1 X8.068 Y-9.32 Z111.182 A0. C0.
X8.068 Y-15.594 Z111.182 A0. C0.
X8.068 Y-15.604 Z111.182 A0. C0.
/M718 ;LASER OFF
G0 X8.696 Y-9.808
/M01
/M717 ;LASER ON
G1 X8.696 Y-9.818 Z111.182 A0. C0.
X8.696 Y-16.048 Z111.182 A0. C0.
X8.696 Y-16.058 Z111.182 A0. C0.
/M718 ;LASER OFF
G0 X9.324 Y-10.306
/M01
/M717 ;LASER ON
G1 X9.324 Y-10.316 Z111.182 A0. C0.
X9.324 Y-16.502 Z111.182 A0. C0.
X9.324 Y-16.512 Z111.182 A0. C0.
/M718 ;LASER OFF
G0 X9.953 Y-10.803
/M01
/M717 ;LASER ON
G1 X9.953 Y-10.813 Z111.182 A0. C0.
X9.953 Y-16.956 Z111.182 A0. C0.
X9.953 Y-16.966 Z111.182 A0. C0.
/M718 ;LASER OFF
G0 X10.581 Y-11.287
/M01
/M717 ;LASER ON
G1 X10.581 Y-11.297 Z111.182 A0. C0.
X10.581 Y-17.41 Z111.182 A0. C0.
X10.581 Y-17.42 Z111.182 A0. C0.
/M718 ;LASER OFF
G0 X11.209 Y-11.769
/M01
/M717 ;LASER ON
G1 X11.209 Y-11.779 Z111.182 A0. C0.
X11.209 Y-17.859 Z111.182 A0. C0.
X11.209 Y-17.869 Z111.182 A0. C0.
/M718 ;LASER OFF
G0 X11.837 Y-12.251
/M01
/M717 ;LASER ON
G1 X11.837 Y-12.261 Z111.182 A0. C0.
X11.837 Y-18.296 Z111.182 A0. C0.
X11.837 Y-18.306 Z111.182 A0. C0.
/M718 ;LASER OFF
G0 X12.465 Y-12.733
/M01
/M717 ;LASER ON
G1 X12.465 Y-12.743 Z111.182 A0. C0.
X12.465 Y-18.733 Z111.182 A0. C0.
X12.465 Y-18.743 Z111.182 A0. C0.
/M718 ;LASER OFF
G0 X13.093 Y-13.215
/M01
/M717 ;LASER ON
G1 X13.093 Y-13.225 Z111.182 A0. C0.
X13.093 Y-19.17 Z111.182 A0. C0.
X13.093 Y-19.18 Z111.182 A0. C0.
/M718 ;LASER OFF
G0 X13.722 Y-13.697
/M01
/M717 ;LASER ON
G1 X13.722 Y-13.707 Z111.182 A0. C0.
X13.722 Y-19.607 Z111.182 A0. C0.
X13.722 Y-19.617 Z111.182 A0. C0.
/M718 ;LASER OFF
G0 X14.35 Y-14.179
/M01
/M717 ;LASER ON
G1 X14.35 Y-14.189 Z111.182 A0. C0.
X14.35 Y-20.044 Z111.182 A0. C0.
X14.35 Y-20.054 Z111.182 A0. C0.
/M718 ;LASER OFF
G0 X14.978 Y-14.661
/M01
/M717 ;LASER ON
G1 X14.978 Y-14.671 Z111.182 A0. C0.
X14.978 Y-20.468 Z111.182 A0. C0.
X14.978 Y-20.478 Z111.182 A0. C0.
/M718 ;LASER OFF
G0 X15.606 Y-15.143
/M01
/M717 ;LASER ON
G1 X15.606 Y-15.153 Z111.182 A0. C0.
X15.606 Y-20.883 Z111.182 A0. C0.
X15.606 Y-20.893 Z111.182 A0. C0.
/M718 ;LASER OFF
G0 X16.234 Y-15.625
/M01
/M717 ;LASER ON
G1 X16.234 Y-15.635 Z111.182 A0. C0.
X16.234 Y-21.297 Z111.182 A0. C0.
X16.234 Y-21.307 Z111.182 A0. C0.
/M718 ;LASER OFF
G0 X16.862 Y-16.107
/M01
/M717 ;LASER ON
G1 X16.862 Y-16.117 Z111.182 A0. C0.
X16.862 Y-21.712 Z111.182 A0. C0.
X16.862 Y-21.722 Z111.182 A0. C0.
/M718 ;LASER OFF
G0 X17.491 Y-16.577
/M01
/M717 ;LASER ON
G1 X17.491 Y-16.587 Z111.182 A0. C0.
X17.491 Y-22.112 Z111.182 A0. C0.
X17.491 Y-22.122 Z111.182 A0. C0.
/M718 ;LASER OFF
G0 X18.119 Y-17.042
/M01
/M717 ;LASER ON
G1 X18.119 Y-17.052 Z111.182 A0. C0.
X18.119 Y-22.496 Z111.182 A0. C0.
X18.119 Y-22.506 Z111.182 A0. C0.
/M718 ;LASER OFF
G0 X18.747 Y-17.508
/M01
/M717 ;LASER ON
G1 X18.747 Y-17.518 Z111.182 A0. C0.
X18.747 Y-22.852 Z111.182 A0. C0.
X18.747 Y-22.862 Z111.182 A0. C0.
/M718 ;LASER OFF
G0 X19.375 Y-17.973
/M01
/M717 ;LASER ON
G1 X19.375 Y-17.983 Z111.182 A0. C0.
X19.375 Y-23.191 Z111.182 A0. C0.
X19.375 Y-23.201 Z111.182 A0. C0.
/M718 ;LASER OFF
G0 X20.003 Y-18.438
/M01
/M717 ;LASER ON
G1 X20.003 Y-18.448 Z111.182 A0. C0.
X20.003 Y-23.51 Z111.182 A0. C0.
X20.003 Y-23.52 Z111.182 A0. C0.
/M718 ;LASER OFF
G0 X20.632 Y-18.904
/M01
/M717 ;LASER ON
G1 X20.632 Y-18.914 Z111.182 A0. C0.
X20.632 Y-23.796 Z111.182 A0. C0.
X20.632 Y-23.806 Z111.182 A0. C0.
/M718 ;LASER OFF
G0 X21.26 Y-19.411
/M01
/M717 ;LASER ON
G1 X21.26 Y-19.421 Z111.182 A0. C0.
X21.26 Y-23.899 Z111.182 A0. C0.
X21.26 Y-23.909 Z111.182 A0. C0.
/M718 ;LASER OFF
G0 X21.888 Y-19.994
/M01
/M717 ;LASER ON
G1 X21.888 Y-20.004 Z111.182 A0. C0.
X21.888 Y-23.831 Z111.182 A0. C0.
X21.888 Y-23.841 Z111.182 A0. C0.
/M718 ;LASER OFF
G0 X22.516 Y-20.707
/M01
/M717 ;LASER ON
G1 X22.516 Y-20.717 Z111.182 A0. C0.
X22.516 Y-23.457 Z111.182 A0. C0.
X22.516 Y-23.467 Z111.182 A0. C0.
/M718 ;LASER OFF
G0 Z136.182
CYCLE832()
G64
TRAFOOF
; ==========================================
LASER_PARA()
/M721 ; Empty powder tube
/G4 F20.
/M722 ; Stop powder supply
; ==========================================
G0 SUPA D0 Z0.
M30

